;FLAVOR:Marlin
;TIME:795
;Filament used: 0.572468m
;Layer height: 0.2
;MINX:131.25
;MINY:91.25
;MINZ:0.2
;MAXX:168.75
;MAXY:128.75
;MAXZ:8
;Generated with Cura_SteamEngine 4.6.0
M82 ;absolute extrusion mode
M201 X500.00 Y500.00 Z100.00 E5000.00 ;Setup machine max acceleration
M203 X500.00 Y500.00 Z10.00 E50.00 ;Setup machine max feedrate
M204 P500.00 R1000.00 T500.00 ;Setup Print/Retract/Travel acceleration
M205 X8.00 Y8.00 Z0.40 E5.00 ;Setup Jerk
M220 S100 ;Reset Feedrate
M221 S100 ;Reset Flowrate

G28 ;Home

G92 E0 ;Reset Extruder
M117 Getting the bed & Extruder up to temp!
M140 S60   ; Set Heat Bed temperature
M104 S220.0 ; Set Extruder temperature
M190 S60 ; Wait for Heat Bed temperature
M109 S220.0 ; Wait for Extruder temperature
M117 Bed & Extruder up to temp!

G1 Z2.0 F3000 ;Move Z Axis up
G1 X10.1 Y20 Z0.28 F5000.0 ;Move to start position
G1 X10.1 Y200.0 Z0.28 F1500.0 E15 ;Draw the first line
G1 X10.4 Y200.0 Z0.28 F5000.0 ;Move to side a little
G1 X10.4 Y20 Z0.28 F1500.0 E30 ;Draw the second line
G92 E0 ;Reset Extruder
G1 Z2.0 F3000 ;Move Z Axis up
G92 E0
G92 E0
G1 F2700 E-5
;LAYER_COUNT:40
;LAYER:0
M107
G0 F6000 X157.638 Y92.261 Z0.2
;TYPE:SKIRT
G1 F2700 E0
G1 F1200 X158.542 Y92.314 E0.03765
G1 X159.437 Y92.446 E0.07526
G1 X160.318 Y92.657 E0.11292
G1 X161.176 Y92.945 E0.15055
G1 X162.006 Y93.308 E0.18822
G1 X162.8 Y93.742 E0.22584
G1 X163.553 Y94.245 E0.26348
G1 X164.259 Y94.812 E0.30113
G1 X164.911 Y95.439 E0.33874
G1 X165.506 Y96.121 E0.37637
G1 X166.039 Y96.853 E0.41401
G1 X166.505 Y97.63 E0.45168
G1 X166.9 Y98.444 E0.4893
G1 X167.222 Y99.29 E0.52693
G1 X167.468 Y100.161 E0.56456
G1 X167.637 Y101.051 E0.60222
G1 X167.737 Y102.222 E0.65108
G1 X167.75 Y102.83 E0.67637
G1 X167.749 Y116.891 E1.26096
G1 X167.74 Y117.618 E1.29118
G1 X167.689 Y118.522 E1.32883
G1 X167.558 Y119.418 E1.36647
G1 X167.349 Y120.298 E1.40408
G1 X167.063 Y121.157 E1.44172
G1 X166.702 Y121.988 E1.47939
G1 X166.269 Y122.783 E1.51702
G1 X165.768 Y123.537 E1.55466
G1 X165.202 Y124.244 E1.59231
G1 X164.577 Y124.898 E1.62992
G1 X163.895 Y125.494 E1.66758
G1 X163.164 Y126.028 E1.70521
G1 X162.389 Y126.495 E1.74283
G1 X161.575 Y126.892 E1.78049
G1 X160.73 Y127.216 E1.81811
G1 X159.859 Y127.464 E1.85576
G1 X158.97 Y127.634 E1.89339
G1 X157.778 Y127.737 E1.94313
G1 X157.17 Y127.75 E1.96842
G1 X143.075 Y127.749 E2.55442
G1 X142.377 Y127.74 E2.58344
G1 X141.473 Y127.689 E2.62109
G1 X140.577 Y127.557 E2.65874
G1 X139.697 Y127.348 E2.69634
G1 X138.838 Y127.061 E2.734
G1 X138.008 Y126.7 E2.77163
G1 X137.213 Y126.267 E2.80926
G1 X136.459 Y125.765 E2.84692
G1 X135.753 Y125.199 E2.88454
G1 X135.099 Y124.573 E2.92218
G1 X134.503 Y123.891 E2.95984
G1 X133.969 Y123.16 E2.99747
G1 X133.502 Y122.384 E3.03513
G1 X133.106 Y121.57 E3.07276
G1 X132.782 Y120.725 E3.11039
G1 X132.535 Y119.854 E3.14803
G1 X132.365 Y118.965 E3.18566
G1 X132.263 Y117.768 E3.2356
G1 X132.25 Y117.158 E3.26097
G1 X132.251 Y103.035 E3.84814
G1 X132.26 Y102.37 E3.87579
G1 X132.312 Y101.466 E3.91343
G1 X132.444 Y100.571 E3.95104
G1 X132.654 Y99.69 E3.9887
G1 X132.941 Y98.832 E4.02631
G1 X133.303 Y98.002 E4.06396
G1 X133.737 Y97.207 E4.10162
G1 X134.239 Y96.454 E4.13924
G1 X134.805 Y95.748 E4.17686
G1 X135.432 Y95.094 E4.21453
G1 X136.114 Y94.499 E4.25216
G1 X136.846 Y93.966 E4.2898
G1 X137.622 Y93.499 E4.32746
G1 X138.436 Y93.103 E4.36509
G1 X139.281 Y92.78 E4.4027
G1 X140.153 Y92.534 E4.44037
G1 X141.042 Y92.365 E4.47799
G1 X142.222 Y92.263 E4.52723
G1 X142.83 Y92.25 E4.55252
G1 X156.94 Y92.251 E5.13914
G1 X157.638 Y92.261 E5.16817
G0 F6000 X157.645 Y91.761
G1 F1200 X158.571 Y91.814 E5.20673
G1 X159.488 Y91.947 E5.24525
G1 X160.391 Y92.159 E5.28381
G1 X161.272 Y92.447 E5.32235
G1 X162.125 Y92.81 E5.36089
G1 X162.944 Y93.246 E5.39946
G1 X163.722 Y93.75 E5.438
G1 X164.453 Y94.319 E5.47652
G1 X165.133 Y94.95 E5.51509
G1 X165.756 Y95.636 E5.55361
G1 X166.318 Y96.374 E5.59218
G1 X166.814 Y97.157 E5.63071
G1 X167.24 Y97.981 E5.66928
G1 X167.594 Y98.837 E5.70779
G1 X167.873 Y99.722 E5.74637
G1 X168.075 Y100.627 E5.78492
G1 X168.198 Y101.546 E5.82347
G1 X168.237 Y102.208 E5.85104
G1 X168.25 Y102.83 E5.8769
G1 X168.249 Y116.897 E6.46174
G1 X168.24 Y117.624 E6.49197
G1 X168.189 Y118.55 E6.53053
G1 X168.058 Y119.468 E6.56908
G1 X167.848 Y120.371 E6.60762
G1 X167.561 Y121.252 E6.64615
G1 X167.2 Y122.106 E6.68469
G1 X166.766 Y122.926 E6.72327
G1 X166.263 Y123.705 E6.76182
G1 X165.695 Y124.437 E6.80034
G1 X165.066 Y125.118 E6.83888
G1 X164.381 Y125.743 E6.87743
G1 X163.644 Y126.306 E6.91599
G1 X162.862 Y126.803 E6.95451
G1 X162.039 Y127.231 E6.99308
G1 X161.183 Y127.587 E7.03162
G1 X160.3 Y127.868 E7.07015
G1 X159.395 Y128.071 E7.10871
G1 X158.476 Y128.196 E7.14727
G1 X157.792 Y128.237 E7.17576
G1 X157.17 Y128.25 E7.20162
G1 X143.068 Y128.249 E7.78791
G1 X142.37 Y128.24 E7.81694
G1 X141.445 Y128.188 E7.85545
G1 X140.527 Y128.057 E7.89401
G1 X139.624 Y127.847 E7.93255
G1 X138.742 Y127.56 E7.97111
G1 X137.889 Y127.197 E8.00965
G1 X137.07 Y126.763 E8.04819
G1 X136.291 Y126.26 E8.08674
G1 X135.558 Y125.692 E8.12529
G1 X134.878 Y125.062 E8.16383
G1 X134.254 Y124.377 E8.20236
G1 X133.691 Y123.64 E8.24092
G1 X133.194 Y122.857 E8.27947
G1 X132.766 Y122.034 E8.31804
G1 X132.411 Y121.178 E8.35657
G1 X132.131 Y120.294 E8.39512
G1 X131.928 Y119.39 E8.43364
G1 X131.804 Y118.471 E8.47219
G1 X131.763 Y117.781 E8.50093
G1 X131.75 Y117.158 E8.52684
G1 X131.751 Y103.029 E9.11425
G1 X131.76 Y102.364 E9.1419
G1 X131.812 Y101.438 E9.18046
G1 X131.945 Y100.52 E9.21903
G1 X132.155 Y99.617 E9.25757
G1 X132.443 Y98.736 E9.29611
G1 X132.805 Y97.883 E9.33463
G1 X133.24 Y97.064 E9.37319
G1 X133.744 Y96.285 E9.41176
G1 X134.313 Y95.553 E9.45031
G1 X134.943 Y94.873 E9.48885
G1 X135.629 Y94.249 E9.5274
G1 X136.366 Y93.687 E9.56593
G1 X137.149 Y93.191 E9.60447
G1 X137.972 Y92.763 E9.64304
G1 X138.828 Y92.409 E9.68155
G1 X139.712 Y92.129 E9.7201
G1 X140.617 Y91.927 E9.75865
G1 X141.536 Y91.803 E9.7972
G1 X142.208 Y91.763 E9.82519
G1 X142.83 Y91.75 E9.85106
G1 X156.947 Y91.751 E10.43797
G1 X157.645 Y91.761 E10.467
G0 F6000 X157.652 Y91.261
G1 F1200 X158.599 Y91.315 E10.50643
G1 X159.538 Y91.448 E10.54586
G1 X160.463 Y91.66 E10.58532
G1 X161.366 Y91.948 E10.62472
G1 X162.242 Y92.312 E10.66416
G1 X163.084 Y92.749 E10.7036
G1 X163.886 Y93.255 E10.74302
G1 X164.643 Y93.826 E10.78245
G1 X165.349 Y94.46 E10.8219
G1 X166 Y95.15 E10.86134
G1 X166.589 Y95.893 E10.90076
G1 X167.114 Y96.683 E10.94019
G1 X167.571 Y97.514 E10.97962
G1 X167.956 Y98.381 E11.01906
G1 X168.267 Y99.277 E11.05849
G1 X168.501 Y100.196 E11.09792
G1 X168.656 Y101.132 E11.13736
G1 X168.737 Y102.194 E11.18164
G1 X168.75 Y102.83 E11.20809
G1 X168.749 Y116.903 E11.79318
G1 X168.74 Y117.63 E11.82341
G1 X168.688 Y118.577 E11.86284
G1 X168.557 Y119.517 E11.90229
G1 X168.347 Y120.442 E11.94173
G1 X168.06 Y121.346 E11.98116
G1 X167.698 Y122.222 E12.02057
G1 X167.263 Y123.065 E12.06001
G1 X166.759 Y123.868 E12.09942
G1 X166.189 Y124.626 E12.13885
G1 X165.557 Y125.334 E12.17831
G1 X164.867 Y125.985 E12.21775
G1 X164.126 Y126.576 E12.25716
G1 X163.337 Y127.103 E12.2966
G1 X162.506 Y127.561 E12.33605
G1 X161.64 Y127.948 E12.37549
G1 X160.745 Y128.26 E12.41489
G1 X159.826 Y128.496 E12.45434
G1 X158.891 Y128.654 E12.49377
G1 X157.806 Y128.737 E12.53901
G1 X157.17 Y128.75 E12.56545
G1 X143.062 Y128.749 E13.152
G1 X142.364 Y128.74 E13.18102
G1 X141.417 Y128.688 E13.22045
G1 X140.478 Y128.556 E13.25987
G1 X139.553 Y128.346 E13.29931
G1 X138.649 Y128.058 E13.33875
G1 X137.773 Y127.695 E13.37818
G1 X136.93 Y127.26 E13.41761
G1 X136.127 Y126.755 E13.45705
G1 X135.369 Y126.185 E13.49648
G1 X134.662 Y125.553 E13.53591
G1 X134.011 Y124.863 E13.57535
G1 X133.42 Y124.121 E13.61479
G1 X132.894 Y123.332 E13.65421
G1 X132.436 Y122.501 E13.69366
G1 X132.05 Y121.635 E13.73308
G1 X131.738 Y120.739 E13.77252
G1 X131.503 Y119.82 E13.81196
G1 X131.346 Y118.885 E13.85138
G1 X131.263 Y117.795 E13.89682
G1 X131.25 Y117.158 E13.92331
G1 X131.251 Y103.022 E14.51102
G1 X131.26 Y102.357 E14.53867
G1 X131.313 Y101.41 E14.5781
G1 X131.445 Y100.471 E14.61753
G1 X131.656 Y99.546 E14.65697
G1 X131.944 Y98.642 E14.69642
G1 X132.308 Y97.766 E14.73586
G1 X132.743 Y96.924 E14.77526
G1 X133.249 Y96.121 E14.81472
G1 X133.82 Y95.364 E14.85414
G1 X134.452 Y94.657 E14.89356
G1 X135.142 Y94.006 E14.933
G1 X135.885 Y93.416 E14.97245
G1 X136.674 Y92.89 E15.01187
G1 X137.505 Y92.433 E15.0513
G1 X138.372 Y92.047 E15.09076
G1 X139.268 Y91.736 E15.13019
G1 X140.187 Y91.501 E15.16963
G1 X141.122 Y91.345 E15.20904
G1 X142.194 Y91.263 E15.25374
G1 X142.83 Y91.25 E15.28018
G1 X156.954 Y91.251 E15.86739
G1 X157.652 Y91.261 E15.89641
G1 F2700 E10.89641
;MESH:magnet_test.stl
G0 F6000 X156.986 Y101.835
G0 X156.986 Y103.014
G0 X155.518 Y115.518
G0 X144.25 Y115.75
;TYPE:WALL-INNER
G1 F2700 E15.89641
G1 F1200 X144.25 Y104.25 E16.37453
G1 X155.75 Y104.25 E16.85264
G1 X155.75 Y115.75 E17.33076
G1 X144.25 Y115.75 E17.80887
G0 F6000 X143.75 Y116.25
G1 F1200 X143.75 Y103.75 E18.32856
G1 X156.25 Y103.75 E18.84825
G1 X156.25 Y116.25 E19.36794
G1 X143.75 Y116.25 E19.88763
G0 F6000 X143.25 Y116.75
G1 F1200 X143.25 Y103.25 E20.44889
G1 X156.75 Y103.25 E21.01016
G1 X156.75 Y116.75 E21.57142
G1 X143.25 Y116.75 E22.13269
G0 F6000 X142.75 Y117.25
;TYPE:WALL-OUTER
G1 F1200 X142.75 Y102.75 E22.73553
G1 X157.25 Y102.75 E23.33837
G1 X157.25 Y117.25 E23.94121
G1 X142.75 Y117.25 E24.54405
G0 F6000 X143.07 Y116.93
G0 X144.41 Y115.26
G0 X144.74 Y115.26
;TYPE:SKIN
G1 F1200 X144.74 Y104.74 E24.98142
G1 X155.26 Y104.74 E25.41879
G1 X155.26 Y115.26 E25.85616
G1 X144.74 Y115.26 E26.29353
G0 F6000 X145.465 Y115.059
G1 F1200 X144.939 Y114.533 E26.32446
G0 F6000 X144.939 Y113.826
G1 F1200 X146.172 Y115.059 E26.39695
G0 F6000 X146.879 Y115.059
G1 F1200 X144.939 Y113.119 E26.51102
G0 F6000 X144.939 Y112.412
G1 F1200 X147.586 Y115.059 E26.66665
G0 F6000 X148.293 Y115.059
G1 F1200 X144.939 Y111.705 E26.86385
G0 F6000 X144.939 Y110.998
G1 F1200 X149 Y115.059 E27.10263
G0 F6000 X149.707 Y115.059
G1 F1200 X144.939 Y110.29 E27.383
G0 F6000 X144.939 Y109.583
G1 F1200 X150.415 Y115.059 E27.70496
G0 F6000 X151.122 Y115.059
G1 F1200 X144.939 Y108.876 E28.0685
G0 F6000 X144.939 Y108.169
G1 F1200 X151.829 Y115.059 E28.47361
G0 F6000 X152.536 Y115.059
G1 F1200 X144.939 Y107.462 E28.92028
G0 F6000 X144.939 Y106.755
G1 F1200 X153.243 Y115.059 E29.40852
G0 F6000 X153.95 Y115.059
G1 F1200 X144.939 Y106.048 E29.93834
G0 F6000 X144.939 Y105.341
G1 F1200 X154.657 Y115.059 E30.50972
G0 F6000 X155.059 Y114.754
G1 F1200 X145.244 Y104.939 E31.0868
G0 F6000 X145.951 Y104.939
G1 F1200 X155.059 Y114.047 E31.62232
G0 F6000 X155.059 Y113.34
G1 F1200 X146.658 Y104.939 E32.11626
G0 F6000 X147.366 Y104.939
G1 F1200 X155.059 Y112.632 E32.56858
G0 F6000 X155.059 Y111.925
G1 F1200 X148.073 Y104.939 E32.97933
G0 F6000 X148.78 Y104.939
G1 F1200 X155.059 Y111.218 E33.34851
G0 F6000 X155.059 Y110.511
G1 F1200 X149.487 Y104.939 E33.67613
G0 F6000 X150.194 Y104.939
G1 F1200 X155.059 Y109.804 E33.96217
G0 F6000 X155.059 Y109.097
G1 F1200 X150.901 Y104.939 E34.20664
G0 F6000 X151.608 Y104.939
G1 F1200 X155.059 Y108.39 E34.40955
G0 F6000 X155.059 Y107.683
G1 F1200 X152.315 Y104.939 E34.57089
G0 F6000 X153.022 Y104.939
G1 F1200 X155.059 Y106.976 E34.69065
G0 F6000 X155.059 Y106.268
G1 F1200 X153.729 Y104.939 E34.76882
G0 F6000 X154.437 Y104.939
G1 F1200 X155.059 Y105.561 E34.80539
M104 S220
G0 F6000 X155.99 Y105.561
;MESH:NONMESH
G0 F300 X155.99 Y105.561 Z0.4
G0 F6000 X155.518 Y115.518
G0 X144.25 Y115.75
;TIME_ELAPSED:51.014776
;LAYER:1
M140 S60
M106 S85
;TYPE:WALL-INNER
;MESH:magnet_test.stl
G1 F1350 X144.25 Y104.25 E35.28351
G1 X155.75 Y104.25 E35.76162
G1 X155.75 Y115.75 E36.23974
G1 X144.25 Y115.75 E36.71785
G0 F7500 X143.75 Y116.25
G1 F1350 X143.75 Y103.75 E37.23754
G1 X156.25 Y103.75 E37.75723
G1 X156.25 Y116.25 E38.27692
G1 X143.75 Y116.25 E38.79661
G0 F7500 X143.25 Y116.75
G1 F1350 X143.25 Y103.25 E39.35788
G1 X156.75 Y103.25 E39.91914
G1 X156.75 Y116.75 E40.4804
G1 X143.25 Y116.75 E41.04167
G0 F7500 X142.75 Y117.25
;TYPE:WALL-OUTER
G1 F1350 X142.75 Y102.75 E41.64451
G1 X157.25 Y102.75 E42.24735
G1 X157.25 Y117.25 E42.85019
G1 X142.75 Y117.25 E43.45303
G0 F7500 X143.07 Y116.93
G0 X144.41 Y115.26
G0 X144.74 Y115.26
;TYPE:SKIN
G1 F1350 X144.74 Y104.74 E43.8904
G1 X155.26 Y104.74 E44.32777
G1 X155.26 Y115.26 E44.76514
G1 X144.74 Y115.26 E45.20251
G0 F7500 X144.41 Y115.26
G0 X144.41 Y105.376
G0 X144.939 Y105.376
G1 F1350 X145.376 Y104.939 E45.22821
G0 F7500 X146.083 Y104.939
G1 F1350 X144.939 Y106.083 E45.29547
G0 F7500 X144.939 Y106.79
G1 F1350 X146.79 Y104.939 E45.4043
G0 F7500 X147.497 Y104.939
G1 F1350 X144.939 Y107.497 E45.5547
G0 F7500 X144.939 Y108.205
G1 F1350 X148.204 Y104.939 E45.7467
G0 F7500 X148.911 Y104.939
G1 F1350 X144.939 Y108.912 E45.98027
G0 F7500 X144.939 Y109.619
G1 F1350 X149.618 Y104.939 E46.2554
G0 F7500 X150.325 Y104.939
G1 F1350 X144.939 Y110.326 E46.57211
G0 F7500 X144.939 Y111.033
G1 F1350 X151.033 Y104.939 E46.93041
G0 F7500 X151.74 Y104.939
G1 F1350 X144.939 Y111.74 E47.33029
G0 F7500 X144.939 Y112.447
G1 F1350 X152.447 Y104.939 E47.77173
G0 F7500 X153.154 Y104.939
G1 F1350 X144.939 Y113.154 E48.25474
G0 F7500 X144.939 Y113.861
G1 F1350 X153.861 Y104.939 E48.77932
G0 F7500 X154.568 Y104.939
G1 F1350 X144.939 Y114.568 E49.34547
G0 F7500 X145.155 Y115.059
G1 F1350 X155.059 Y105.155 E49.92778
G0 F7500 X155.059 Y105.863
G1 F1350 X145.862 Y115.059 E50.4685
G0 F7500 X146.569 Y115.059
G1 F1350 X155.059 Y106.57 E50.96765
G0 F7500 X155.059 Y107.277
G1 F1350 X147.276 Y115.059 E51.42523
G0 F7500 X147.984 Y115.059
G1 F1350 X155.059 Y107.984 E51.84122
G0 F7500 X155.059 Y108.691
G1 F1350 X148.691 Y115.059 E52.21563
G0 F7500 X149.398 Y115.059
G1 F1350 X155.059 Y109.398 E52.54848
G0 F7500 X155.059 Y110.105
G1 F1350 X150.105 Y115.059 E52.83975
G0 F7500 X150.812 Y115.059
G1 F1350 X155.059 Y110.812 E53.08946
G0 F7500 X155.059 Y111.519
G1 F1350 X151.519 Y115.059 E53.2976
G0 F7500 X152.226 Y115.059
G1 F1350 X155.059 Y112.227 E53.46414
G0 F7500 X155.059 Y112.934
G1 F1350 X152.933 Y115.059 E53.58911
G0 F7500 X153.64 Y115.059
G1 F1350 X155.059 Y113.641 E53.67251
G0 F7500 X155.059 Y114.348
G1 F1350 X154.347 Y115.059 E53.71435
G0 F7500 X154.347 Y115.99
;MESH:NONMESH
G0 F300 X154.347 Y115.99 Z0.6
G0 F7500 X144.25 Y115.75
;TIME_ELAPSED:74.963997
;LAYER:2
M106 S170
;TYPE:WALL-INNER
;MESH:magnet_test.stl
G1 F1500 X144.25 Y104.25 E54.19246
G1 X155.75 Y104.25 E54.67057
G1 X155.75 Y115.75 E55.14869
G1 X144.25 Y115.75 E55.6268
G0 F9000 X143.75 Y116.25
G1 F1500 X143.75 Y103.75 E56.14649
G1 X156.25 Y103.75 E56.66618
G1 X156.25 Y116.25 E57.18587
G1 X143.75 Y116.25 E57.70556
G0 F9000 X143.25 Y116.75
G1 F1500 X143.25 Y103.25 E58.26683
G1 X156.75 Y103.25 E58.82809
G1 X156.75 Y116.75 E59.38936
G1 X143.25 Y116.75 E59.95062
G0 F9000 X142.75 Y117.25
;TYPE:WALL-OUTER
G1 F1500 X142.75 Y102.75 E60.55346
G1 X157.25 Y102.75 E61.1563
G1 X157.25 Y117.25 E61.75914
G1 X142.75 Y117.25 E62.36198
G0 F9000 X143.07 Y116.93
G0 X144.41 Y115.26
G0 X144.74 Y115.26
;TYPE:SKIN
G1 F1500 X144.74 Y104.74 E62.79935
G1 X155.26 Y104.74 E63.23672
G1 X155.26 Y115.26 E63.67409
G1 X144.74 Y115.26 E64.11146
G0 F9000 X145.465 Y115.059
G1 F1500 X144.939 Y114.533 E64.14239
G0 F9000 X144.939 Y113.826
G1 F1500 X146.172 Y115.059 E64.21489
G0 F9000 X146.879 Y115.059
G1 F1500 X144.939 Y113.119 E64.32895
G0 F9000 X144.939 Y112.412
G1 F1500 X147.586 Y115.059 E64.48458
G0 F9000 X148.293 Y115.059
G1 F1500 X144.939 Y111.705 E64.68179
G0 F9000 X144.939 Y110.998
G1 F1500 X149 Y115.059 E64.92056
G0 F9000 X149.707 Y115.059
G1 F1500 X144.939 Y110.29 E65.20093
G0 F9000 X144.939 Y109.583
G1 F1500 X150.415 Y115.059 E65.5229
G0 F9000 X151.122 Y115.059
G1 F1500 X144.939 Y108.876 E65.88643
G0 F9000 X144.939 Y108.169
G1 F1500 X151.829 Y115.059 E66.29154
G0 F9000 X152.536 Y115.059
G1 F1500 X144.939 Y107.462 E66.73821
G0 F9000 X144.939 Y106.755
G1 F1500 X153.243 Y115.059 E67.22646
G0 F9000 X153.95 Y115.059
G1 F1500 X144.939 Y106.048 E67.75627
G0 F9000 X144.939 Y105.341
G1 F1500 X154.657 Y115.059 E68.32765
G0 F9000 X155.059 Y114.754
