;FLAVOR:Marlin
;TIME:9592
;Filament used: 6.21498m
;Layer height: 0.2
;MINX:111.835
;MINY:86.836
;MINZ:0.24
;MAXX:188.079
;MAXY:133.164
;MAXZ:13.09
;Generated with Cura_SteamEngine 4.5.0
M82 ;absolute extrusion mode
M201 X500.00 Y500.00 Z100.00 E5000.00 ;Setup machine max acceleration
M203 X500.00 Y500.00 Z10.00 E50.00 ;Setup machine max feedrate
M204 P500.00 R1000.00 T500.00 ;Setup Print/Retract/Travel acceleration
M205 X8.00 Y8.00 Z0.40 E5.00 ;Setup Jerk
M220 S100 ;Reset Feedrate
M221 S100 ;Reset Flowrate

G28 ;Home

G92 E0 ;Reset Extruder
M117 Getting the bed & Extruder up to temp!
M140 S60   ; Set Heat Bed temperature
M104 S220.0 ; Set Extruder temperature
M190 S60 ; Wait for Heat Bed temperature
M109 S220.0 ; Wait for Extruder temperature
M117 Bed & Extruder up to temp!

G1 Z2.0 F3000 ;Move Z Axis up
G1 X10.1 Y20 Z0.28 F5000.0 ;Move to start position
G1 X10.1 Y200.0 Z0.28 F1500.0 E15 ;Draw the first line
G1 X10.4 Y200.0 Z0.28 F5000.0 ;Move to side a little
G1 X10.4 Y20 Z0.28 F1500.0 E30 ;Draw the second line
G92 E0 ;Reset Extruder
G1 Z2.0 F3000 ;Move Z Axis up
G92 E0
G92 E0
G1 F1500 E-6.5
;LAYER_COUNT:60
;LAYER:-6
M107
G0 F9000 X114.216 Y101.787 Z0.24
;TYPE:SUPPORT-INTERFACE
G1 F1500 E0
G1 F1125 X114.345 Y101.648 E0.01514
G1 X126.647 Y89.346 E1.40389
G1 X126.768 Y89.233 E1.41711
G1 X127.031 Y89.002 E1.44505
G1 X127.293 Y88.799 E1.47151
G1 X127.483 Y88.67 E1.48984
G1 X127.798 Y88.486 E1.51896
G1 X128.265 Y88.258 E1.56044
G1 X128.364 Y88.222 E1.56885
G1 X128.697 Y88.109 E1.59692
G1 X129.001 Y88.027 E1.62206
G1 X129.255 Y87.976 E1.64274
G1 X129.578 Y87.933 E1.66875
G1 X129.945 Y87.908 E1.69811
G1 X130.171 Y87.9 E1.71616
G1 X143.289 Y87.9 E2.7633
G1 X143.476 Y87.906 E2.77823
G1 X143.8 Y87.926 E2.80415
G1 X144.145 Y87.97 E2.83191
G1 X144.38 Y88.015 E2.85101
G1 X144.714 Y88.102 E2.87856
G1 X144.866 Y88.152 E2.89133
G1 X145.568 Y88.338 E2.9493
G1 X146.299 Y88.445 E3.00827
G1 X147.038 Y88.468 E3.06729
G1 X147.774 Y88.404 E3.12627
G1 X148.434 Y88.271 E3.18001
G1 X148.855 Y88.163 E3.2147
G1 X149.089 Y88.119 E3.23371
G1 X149.442 Y88.075 E3.26211
G1 X149.69 Y88.06 E3.28194
G1 X149.994 Y88.057 E3.30621
G1 X150.295 Y88.072 E3.33026
G1 X151.948 Y88.219 E3.46273
G1 X152.885 Y88.358 E3.53835
G1 X152.886 Y88.349 E3.53907
G1 X153.624 Y88.372 E3.59801
G1 X154.362 Y88.308 E3.65714
G1 X155.201 Y88.129 E3.72562
G1 X155.493 Y88.045 E3.74987
G1 X155.712 Y87.997 E3.76777
G1 X156.1 Y87.94 E3.79908
G1 X156.51 Y87.909 E3.8319
G1 X156.738 Y87.9 E3.85011
G1 X169.851 Y87.9 E4.89685
G1 X170.038 Y87.906 E4.91178
G1 X170.362 Y87.926 E4.93769
G1 X170.706 Y87.97 E4.96538
G1 X170.935 Y88.014 E4.98399
G1 X171.273 Y88.102 E5.01187
G1 X171.742 Y88.261 E5.0514
G1 X171.84 Y88.305 E5.05998
G1 X172.143 Y88.453 E5.0869
G1 X172.448 Y88.626 E5.11489
G1 X172.635 Y88.748 E5.13271
G1 X172.93 Y88.971 E5.16223
G1 X173.213 Y89.216 E5.19211
G1 X173.352 Y89.345 E5.20724
G1 X185.654 Y101.647 E6.596
G1 X185.767 Y101.768 E6.60922
G1 X185.998 Y102.031 E6.63716
G1 X186.197 Y102.288 E6.6631
G1 X186.33 Y102.483 E6.68195
G1 X186.514 Y102.798 E6.71107
G1 X186.744 Y103.271 E6.75305
G1 X186.775 Y103.356 E6.76027
G1 X186.891 Y103.697 E6.78902
G1 X186.972 Y103.998 E6.81391
G1 X187.022 Y104.247 E6.83418
G1 X187.068 Y104.581 E6.86109
G1 X187.092 Y104.945 E6.89021
G1 X187.1 Y105.157 E6.90715
G1 X187.1 Y114.851 E7.68096
G1 X187.094 Y115.038 E7.6959
G1 X187.075 Y115.356 E7.72133
G1 X187.03 Y115.706 E7.7495
G1 X186.986 Y115.935 E7.76811
G1 X186.9 Y116.266 E7.79541
G1 X186.742 Y116.735 E7.83491
G1 X186.689 Y116.853 E7.84524
G1 X186.547 Y117.143 E7.87102
G1 X186.374 Y117.448 E7.89901
G1 X186.252 Y117.635 E7.91683
G1 X186.029 Y117.93 E7.94635
G1 X185.784 Y118.213 E7.97623
G1 X185.655 Y118.352 E7.99136
G1 X173.353 Y130.654 E9.38012
G1 X173.232 Y130.767 E9.39334
G1 X172.972 Y130.995 E9.42094
G1 X172.709 Y131.199 E9.44751
G1 X172.517 Y131.33 E9.46606
G1 X172.202 Y131.514 E9.49518
G1 X171.729 Y131.744 E9.53717
G1 X171.644 Y131.775 E9.54439
G1 X171.304 Y131.891 E9.57307
G1 X170.999 Y131.973 E9.59828
G1 X170.745 Y132.024 E9.61896
G1 X170.422 Y132.067 E9.64497
G1 X170.055 Y132.092 E9.67433
G1 X169.83 Y132.1 E9.6923
G1 X156.712 Y132.1 E10.73944
G1 X156.525 Y132.094 E10.75437
G1 X156.201 Y132.074 E10.78029
G1 X155.856 Y132.03 E10.80805
G1 X155.617 Y131.984 E10.82748
G1 X155.298 Y131.902 E10.85377
G1 X154.306 Y131.567 E10.93735
G1 X153.582 Y131.416 E10.99638
G1 X152.843 Y131.348 E11.05562
G1 X151.915 Y131.386 E11.12976
G1 X151.601 Y131.422 E11.15499
G1 X151.131 Y131.442 E11.19254
G1 X150.938 Y131.443 E11.20795
G1 X149.928 Y131.404 E11.28863
G1 X149.74 Y131.391 E11.30367
G1 X149.438 Y131.36 E11.32791
G1 X148.462 Y131.199 E11.40687
G1 X148.461 Y131.209 E11.40767
G1 X147.762 Y131.171 E11.46355
G1 X147.025 Y131.217 E11.5225
G1 X146.292 Y131.348 E11.58193
G1 X145.279 Y131.685 E11.66715
G1 X145.052 Y131.783 E11.68689
G1 X144.827 Y131.863 E11.70595
G1 X144.498 Y131.958 E11.73329
G1 X144.292 Y132.002 E11.7501
G1 X143.901 Y132.06 E11.78166
G1 X143.491 Y132.091 E11.81448
G1 X143.263 Y132.1 E11.83269
G1 X130.149 Y132.1 E12.87951
G1 X129.962 Y132.094 E12.89444
G1 X129.638 Y132.074 E12.92035
G1 X129.294 Y132.03 E12.94804
G1 X129.065 Y131.986 E12.96665
G1 X128.727 Y131.898 E12.99453
G1 X128.265 Y131.742 E13.03346
G1 X128.141 Y131.686 E13.04432
G1 X127.857 Y131.547 E13.06956
G1 X127.552 Y131.374 E13.09755
G1 X127.365 Y131.252 E13.11537
G1 X127.07 Y131.029 E13.14489
G1 X126.777 Y130.775 E13.17584
G1 X126.647 Y130.654 E13.19002
G1 X114.345 Y118.352 E14.57878
G1 X114.225 Y118.223 E14.59284
G1 X114.002 Y117.969 E14.61982
G1 X113.799 Y117.707 E14.64628
G1 X113.67 Y117.517 E14.66461
G1 X113.486 Y117.202 E14.69373
G1 X113.255 Y116.726 E14.73596
G1 X113.213 Y116.612 E14.74566
G1 X113.109 Y116.304 E14.77161
G1 X113.027 Y115.999 E14.79682
G1 X112.975 Y115.74 E14.81791
G1 X112.933 Y115.422 E14.84351
G1 X112.908 Y115.051 E14.8732
G1 X112.9 Y114.844 E14.88973
G1 X112.9 Y105.149 E15.66363
G1 X112.906 Y104.962 E15.67856
G1 X112.925 Y104.644 E15.70399
G1 X112.969 Y104.297 E15.73191
G1 X113.015 Y104.058 E15.75134
G1 X113.1 Y103.734 E15.77808
G1 X113.258 Y103.264 E15.81766
G1 X113.319 Y103.132 E15.82927
G1 X113.453 Y102.857 E15.85369
G1 X113.626 Y102.552 E15.88168
G1 X113.743 Y102.373 E15.89875
G1 X113.983 Y102.056 E15.93049
G1 X114.216 Y101.787 E15.95889
G0 F9000 X113.6 Y102.597
G1 F1125 X113.6 Y117.397 E17.14029
G0 F9000 X115.2 Y119.207
G1 F1125 X115.2 Y100.793 E18.61018
G0 F9000 X116.8 Y99.193
G1 F1125 X116.8 Y120.807 E20.3355
G0 F9000 X118.4 Y122.407
G1 F1125 X118.4 Y97.593 E22.31626
G0 F9000 X120 Y95.993
G1 F1125 X120 Y124.007 E24.55246
G0 F9000 X121.6 Y125.607
G1 F1125 X121.6 Y94.393 E27.0441
G0 F9000 X123.2 Y92.793
G1 F1125 X123.2 Y127.207 E29.79117
G0 F9000 X124.8 Y128.807
G1 F1125 X124.8 Y91.193 E32.79368
G0 F9000 X126.4 Y89.593
G1 F1125 X126.4 Y130.407 E36.05163
G0 F9000 X128 Y131.616
G1 F1125 X128 Y88.387 E39.50236
G0 F9000 X129.6 Y87.931
G1 F1125 X129.6 Y132.069 E43.02565
G0 F9000 X131.2 Y132.1
G1 F1125 X131.2 Y87.9 E46.55388
G0 F9000 X132.8 Y87.9
G1 F1125 X132.8 Y132.1 E50.08212
G0 F9000 X134.4 Y132.1
G1 F1125 X134.4 Y87.9 E53.61035
G0 F9000 X136 Y87.9
G1 F1125 X136 Y132.1 E57.13859
G0 F9000 X137.6 Y132.1
G1 F1125 X137.6 Y87.9 E60.66682
G0 F9000 X139.2 Y87.9
G1 F1125 X139.2 Y132.1 E64.19506
G0 F9000 X140.8 Y132.1
G1 F1125 X140.8 Y87.9 E67.72329
G0 F9000 X142.4 Y87.9
G1 F1125 X142.4 Y132.1 E71.25153
G0 F9000 X144 Y132.046
G1 F1125 X144 Y87.952 E74.7713
G0 F9000 X145.6 Y88.343
G1 F1125 X145.6 Y131.579 E78.22258
G0 F9000 X147.2 Y131.207
G1 F1125 X147.2 Y88.453 E81.63539
G0 F9000 X148.8 Y88.177
G1 F1125 X148.8 Y131.254 E85.07399
G0 F9000 X150.4 Y131.422
G1 F1125 X150.4 Y88.082 E88.53357
G0 F9000 X152 Y88.227
G1 F1125 X152 Y131.383 E91.97847
G0 F9000 X153.6 Y131.419
G1 F1125 X153.6 Y88.372 E95.41467
G0 F9000 X155.2 Y88.129
G1 F1125 X155.2 Y131.868 E98.9061
G0 F9000 X156.8 Y132.1
G1 F1125 X156.8 Y87.9 E102.43434
G0 F9000 X158.4 Y87.9
G1 F1125 X158.4 Y132.1 E105.96258
G0 F9000 X160 Y132.1
G1 F1125 X160 Y87.9 E109.49081
G0 F9000 X161.6 Y87.9
G1 F1125 X161.6 Y132.1 E113.01905
G0 F9000 X163.2 Y132.1
G1 F1125 X163.2 Y87.9 E116.54728
G0 F9000 X164.8 Y87.9
G1 F1125 X164.8 Y132.1 E120.07552
G0 F9000 X166.4 Y132.1
G1 F1125 X166.4 Y87.9 E123.60375
G0 F9000 X168 Y87.9
G1 F1125 X168 Y132.1 E127.13199
G0 F9000 X169.6 Y132.1
G1 F1125 X169.6 Y87.9 E130.66022
G0 F9000 X171.2 Y88.083
G1 F1125 X171.2 Y131.919 E134.1594
G0 F9000 X172.8 Y131.129
G1 F1125 X172.8 Y88.873 E137.53246
G0 F9000 X174.4 Y90.393
G1 F1125 X174.4 Y129.607 E140.66269
G0 F9000 X176 Y128.007
G1 F1125 X176 Y91.993 E143.53748
G0 F9000 X177.6 Y93.593
G1 F1125 X177.6 Y126.407 E146.15684
G0 F9000 X179.2 Y124.807
G1 F1125 X179.2 Y95.193 E148.52075
G0 F9000 X180.8 Y96.793
G1 F1125 X180.8 Y123.207 E150.62923
G0 F9000 X182.4 Y121.607
G1 F1125 X182.4 Y98.393 E152.48228
G0 F9000 X184 Y99.993
G1 F1125 X184 Y120.007 E154.07988
G0 F9000 X185.6 Y118.407
M104 S220
G1 F1125 X185.6 Y101.593 E155.42205
G0 F300 X185.6 Y101.593 Z0.54
G0 F9000 X186.743 Y103.27
;TIME_ELAPSED:114.232689
;LAYER:-5
M140 S60
;TYPE:SUPPORT
G1 F1125 X186.513 Y102.797 E155.47453
G1 X186.329 Y102.483 E155.51084
G1 X186.196 Y102.287 E155.53447
G1 X185.997 Y102.031 E155.56683
G1 X185.766 Y101.767 E155.60183
G1 X185.653 Y101.647 E155.61828
G1 X173.35 Y89.345 E157.35429
G1 X173.212 Y89.216 E157.37314
G1 X172.928 Y88.971 E157.41057
G1 X172.634 Y88.747 E157.44745
G1 X172.447 Y88.625 E157.46973
G1 X172.142 Y88.453 E157.50466
G1 X171.839 Y88.304 E157.53836
G1 X171.74 Y88.261 E157.54913
G1 X171.679 Y88.24 E157.55556
G1 X186.763 Y103.324 E159.68408
G1 F1500 E153.18408
G0 F9000 X187.644 Y102.678
G0 X187.066 Y101.672
G0 X186.425 Y100.913
G0 X173.601 Y88.143
G0 X173.058 Y87.786
G0 X172.299 Y87.344
G0 X171.679 Y88.24
G1 F1500 E159.68408
G1 F1125 X171.271 Y88.101 E159.72709
G1 X170.934 Y88.013 E159.76184
G1 X170.705 Y87.969 E159.78511
G1 X170.361 Y87.925 E159.81971
G1 X170.037 Y87.905 E159.8521
G1 X169.926 Y87.902 E159.86318
G1 X187.096 Y105.071 E162.28598
G1 X187.099 Y105.156 E162.29447
G1 X187.099 Y106.488 E162.42738
G1 X168.51 Y87.9 E165.05042
G1 X167.096 Y87.9 E165.1915
G1 X187.099 Y107.903 E168.01414
G1 X187.099 Y109.317 E168.15523
G1 X165.682 Y87.9 E171.1774
G1 X164.267 Y87.9 E171.31859
G1 X187.099 Y110.731 E174.54036
G1 X187.099 Y112.145 E174.68145
G1 X162.853 Y87.9 E178.10276
G1 X161.439 Y87.9 E178.24385
G1 X187.099 Y113.559 E181.86468
G1 X187.099 Y114.851 E181.99359
G1 X187.095 Y114.97 E182.00547
G1 X160.025 Y87.9 E185.82534
G1 X158.611 Y87.9 E185.96643
G1 X186.915 Y116.204 E189.96043
G1 X186.898 Y116.266 E189.96685
G1 X186.741 Y116.734 E190.0161
G1 X186.688 Y116.852 E190.02901
G1 X186.546 Y117.142 E190.06123
G1 X186.507 Y117.211 E190.06914
G1 X157.196 Y87.9 E194.20524
G1 X156.737 Y87.9 E194.25104
G1 X156.509 Y87.908 E194.2738
G1 X156.099 Y87.94 E194.31483
G1 X155.858 Y87.976 E194.33915
G1 X185.928 Y118.046 E198.58235
G1 X185.783 Y118.213 E198.60442
G1 X185.654 Y118.351 E198.62327
G1 X185.237 Y118.769 E198.68218
G1 X154.703 Y88.235 E202.99086
G1 X154.361 Y88.307 E203.02573
G1 X153.623 Y88.372 E203.09965
G1 X153.419 Y88.365 E203.12002
G1 X184.53 Y119.476 E207.51012
G1 X183.823 Y120.183 E207.60988
G1 X151.849 Y88.21 E212.12169
G1 X150.297 Y88.072 E212.27716
G1 X183.115 Y120.89 E216.90814
G1 X182.408 Y121.597 E217.0079
G1 X148.955 Y88.144 E221.72848
G1 X148.854 Y88.163 E221.73873
G1 X148.433 Y88.27 E221.78208
G1 X147.797 Y88.4 E221.84685
G1 X181.701 Y122.304 E226.63107
G1 X180.994 Y123.011 E226.73084
G1 X146.432 Y88.449 E231.60791
G1 X146.298 Y88.445 E231.62128
G1 X145.567 Y88.338 E231.695
G1 X144.864 Y88.152 E231.76756
G1 X144.712 Y88.101 E231.78356
G1 X144.655 Y88.087 E231.78941
G1 X180.287 Y123.718 E236.8174
G1 X179.58 Y124.426 E236.91724
G1 X143.054 Y87.9 E242.07145
G1 X141.64 Y87.9 E242.21254
G1 X178.873 Y125.133 E247.46652
G1 X178.166 Y125.84 E247.56629
G1 X140.226 Y87.9 E252.92003
G1 X138.812 Y87.9 E253.06112
G1 X177.459 Y126.547 E258.51463
G1 X176.751 Y127.254 E258.61447
G1 X137.397 Y87.9 E264.16774
G1 X135.983 Y87.9 E264.30883
G1 X176.044 Y127.961 E269.96187
G1 X175.337 Y128.668 E270.06163
G1 X134.569 Y87.9 E275.81444
G1 X133.155 Y87.9 E275.95553
G1 X174.63 Y129.375 E281.8081
G1 X173.923 Y130.082 E281.90786
G1 X131.741 Y87.9 E287.8602
G1 X130.326 Y87.9 E288.00139
G1 X173.21 Y130.784 E294.05279
G1 X172.971 Y130.995 E294.0846
G1 X172.708 Y131.198 E294.11775
G1 X172.516 Y131.33 E294.141
G1 X172.406 Y131.393 E294.15364
G1 X129.032 Y88.02 E300.27411
G1 X128.999 Y88.027 E300.27748
G1 X128.696 Y88.108 E300.30877
G1 X128.363 Y88.222 E300.34389
G1 X128.264 Y88.257 E300.35437
G1 X127.989 Y88.391 E300.3849
G1 X171.441 Y131.843 E306.51644
G1 X171.303 Y131.89 E306.53099
G1 X170.998 Y131.972 E306.5625
G1 X170.744 Y132.024 E306.58837
G1 X170.421 Y132.067 E306.62089
G1 X170.261 Y132.077 E306.63688
G1 X127.118 Y88.934 E312.72483
G1 X127.03 Y89.002 E312.73592
G1 X126.767 Y89.232 E312.77078
G1 X126.646 Y89.346 E312.78737
G1 X126.381 Y89.611 E312.82477
G1 X168.869 Y132.099 E318.82028
G1 X167.454 Y132.099 E318.96147
G1 X125.674 Y90.318 E324.85715
G1 X124.966 Y91.025 E324.95699
G1 X166.04 Y132.099 E330.75297
G1 X164.626 Y132.099 E330.89406
G1 X124.259 Y91.732 E336.59028
G1 X123.552 Y92.44 E336.69012
G1 X163.212 Y132.099 E342.2865
G1 X161.798 Y132.099 E342.42759
G1 X122.845 Y93.147 E347.92421
G1 X122.138 Y93.854 E348.02397
G1 X160.383 Y132.099 E353.42076
G1 X158.969 Y132.099 E353.56185
G1 X121.431 Y94.561 E358.85886
G1 X120.724 Y95.268 E358.95863
G1 X157.555 Y132.099 E364.15588
G1 X156.711 Y132.099 E364.2401
G1 X156.524 Y132.093 E364.25876
G1 X156.2 Y132.074 E364.29115
G1 X156.103 Y132.061 E364.30091
G1 X120.017 Y95.975 E369.39304
G1 X119.31 Y96.682 E369.4928
G1 X154.164 Y131.537 E374.41115
G1 X153.581 Y131.416 E374.47056
G1 X152.842 Y131.347 E374.54462
G1 X152.571 Y131.358 E374.57168
G1 X118.603 Y97.389 E379.36501
G1 X117.895 Y98.096 E379.46484
G1 X151.235 Y131.437 E384.16955
G1 X151.13 Y131.441 E384.18003
G1 X150.937 Y131.442 E384.19929
G1 X149.927 Y131.403 E384.30014
G1 X149.777 Y131.393 E384.31514
G1 X117.188 Y98.804 E388.9138
G1 X116.481 Y99.511 E389.01357
G1 X148.162 Y131.192 E393.4841
G1 X147.761 Y131.171 E393.52417
G1 X147.023 Y131.217 E393.59795
G1 X146.81 Y131.254 E393.61952
G1 X115.774 Y100.218 E397.99903
G1 X115.067 Y100.925 E398.0988
G1 X145.69 Y131.548 E402.42003
G1 X145.278 Y131.685 E402.46336
G1 X145.05 Y131.782 E402.48808
G1 X144.826 Y131.863 E402.51185
G1 X144.642 Y131.915 E402.53093
G1 X114.36 Y101.632 E406.80411
G1 X114.344 Y101.648 E406.80637
G1 X114.215 Y101.787 E406.82529
G1 X113.982 Y102.056 E406.8608
G1 X113.742 Y102.373 E406.90048
G1 X113.72 Y102.406 E406.90443
G1 X143.407 Y132.093 E411.09359
G1 X143.262 Y132.1 E411.10807
G1 X141.999 Y132.099 E411.2341
G1 X113.233 Y103.333 E415.29329
G1 X113.098 Y103.733 E415.33541
G1 X113.014 Y104.057 E415.36881
G1 X112.968 Y104.296 E415.3931
G1 X112.946 Y104.461 E415.40971
G1 X140.584 Y132.099 E419.30973
G1 X139.17 Y132.099 E419.45082
G1 X112.898 Y105.827 E423.15808
G1 X112.898 Y107.241 E423.29917
G1 X137.756 Y132.099 E426.8069
G1 X136.342 Y132.099 E426.94799
G1 X112.898 Y108.656 E430.25612
G1 X112.899 Y110.071 E430.39731
G1 X134.927 Y132.099 E433.5057
G1 X133.513 Y132.099 E433.64679
G1 X112.899 Y111.485 E436.55565
G1 X112.899 Y112.899 E436.69674
G1 X132.099 Y132.099 E439.40607
G1 X130.685 Y132.099 E439.54715
G1 X112.899 Y114.313 E442.05695
G1 X112.9 Y114.843 E442.10983
G1 X112.907 Y115.05 E442.1305
G1 X112.933 Y115.421 E442.16761
G1 X112.974 Y115.739 E442.1996
G1 X112.99 Y115.818 E442.20765
G1 X129.177 Y132.006 E444.49188
G1 X129.064 Y131.985 E444.50335
G1 X128.726 Y131.897 E444.5382
G1 X128.264 Y131.741 E444.58685
G1 X128.141 Y131.685 E444.60034
G1 X127.856 Y131.546 E444.63198
G1 X127.552 Y131.373 E444.66688
G1 X127.364 Y131.251 E444.68924
G1 X127.069 Y131.028 E444.72614
G1 X126.776 Y130.774 E444.76483
G1 X126.647 Y130.653 E444.78248
G1 X114.344 Y118.351 E446.51849
G1 X114.224 Y118.222 E446.53607
G1 X114.001 Y117.968 E446.5698
G1 X113.798 Y117.706 E446.60287
G1 X113.669 Y117.516 E446.62579
G1 X113.486 Y117.201 E446.66214
G1 X113.255 Y116.725 E446.71493
