;FLAVOR:Marlin
;TIME:4526
;Filament used: 4.11008m
;Layer height: 0.2
;MINX:133.336
;MINY:67.75
;MINZ:0.2
;MAXX:166.665
;MAXY:152.25
;MAXZ:7
;Generated with Cura_SteamEngine 4.5.0
M82 ;absolute extrusion mode
M201 X500.00 Y500.00 Z100.00 E5000.00 ;Setup machine max acceleration
M203 X500.00 Y500.00 Z10.00 E50.00 ;Setup machine max feedrate
M204 P500.00 R1000.00 T500.00 ;Setup Print/Retract/Travel acceleration
M205 X8.00 Y8.00 Z0.40 E5.00 ;Setup Jerk
M220 S100 ;Reset Feedrate
M221 S100 ;Reset Flowrate

G28 ;Home

G92 E0 ;Reset Extruder
M117 Getting the bed & Extruder up to temp!
M140 S60   ; Set Heat Bed temperature
M104 S220.0 ; Set Extruder temperature
M190 S60 ; Wait for Heat Bed temperature
M109 S220.0 ; Wait for Extruder temperature
M117 Bed & Extruder up to temp!

G1 Z2.0 F3000 ;Move Z Axis up
G1 X10.1 Y20 Z0.28 F5000.0 ;Move to start position
G1 X10.1 Y200.0 Z0.28 F1500.0 E15 ;Draw the first line
G1 X10.4 Y200.0 Z0.28 F5000.0 ;Move to side a little
G1 X10.4 Y20 Z0.28 F1500.0 E30 ;Draw the second line
G92 E0 ;Reset Extruder
G1 Z2.0 F3000 ;Move Z Axis up
G92 E0
G92 E0
G1 F2700 E-5
;LAYER_COUNT:35
;LAYER:0
M107
G0 F6000 X150.691 Y73.769 Z0.2
;TYPE:SKIRT
G1 F2700 E0
G1 F1200 X151.094 Y73.03 E0.035
G1 X151.726 Y72.412 E0.07175
G1 X152.476 Y71.776 E0.11263
G1 X153.167 Y71.522 E0.14324
G1 X153.941 Y71.475 E0.17548
G1 X155.194 Y71.603 E0.22784
G1 X156.203 Y72.207 E0.27673
G1 X156.873 Y73.064 E0.32196
G1 X157.023 Y73.208 E0.3306
G1 X157.13 Y73.286 E0.33611
G1 X157.528 Y74.358 E0.38365
G1 X157.59 Y75.139 E0.41622
G1 X157.277 Y76.398 E0.47016
G1 X156.788 Y77.18 E0.5085
G1 X156.647 Y77.447 E0.52106
G1 X156.46 Y77.583 E0.53067
G1 X156.296 Y77.583 E0.53749
G1 X156.165 Y77.487 E0.54424
G1 X156.128 Y77.374 E0.54918
G1 X156.315 Y76.948 E0.56852
G1 X156.803 Y76.181 E0.60632
G1 X156.915 Y75.866 E0.62022
G1 X157.05 Y74.715 E0.6684
G1 X157.038 Y74.472 E0.67852
G1 X156.975 Y74.291 E0.68648
G1 X156.576 Y73.499 E0.72335
G1 X156.495 Y73.372 E0.72962
G1 X155.92 Y72.643 E0.76822
G1 X155.739 Y72.478 E0.7784
G1 X155.612 Y72.412 E0.78435
G1 X154.646 Y72.021 E0.82768
G1 X154.408 Y71.967 E0.83782
G1 X154.255 Y71.974 E0.84419
G1 X153.221 Y72.128 E0.88765
G1 X152.978 Y72.208 E0.89829
G1 X152.093 Y72.68 E0.93999
G1 X151.899 Y72.829 E0.95016
G1 X151.776 Y73.005 E0.95909
G1 X151.305 Y73.94 E1.00261
G1 X151.262 Y73.976 E1.00495
G1 X151.102 Y74.161 E1.01511
G1 X151.01 Y74.387 E1.02526
G1 X150.992 Y74.561 E1.03253
G1 X151.004 Y75.517 E1.07228
G1 X151.088 Y75.853 E1.08668
G1 X151.623 Y76.886 E1.13505
G1 X151.769 Y77.082 E1.14521
G1 X151.875 Y77.167 E1.15085
G1 X152.736 Y77.736 E1.19376
G1 X152.939 Y77.83 E1.20306
G1 X153.654 Y78.04 E1.23404
G1 X153.876 Y78.202 E1.24547
G1 X153.926 Y78.356 E1.2522
G1 X153.876 Y78.51 E1.25893
G1 X153.745 Y78.606 E1.26569
G1 X153.435 Y78.606 E1.27857
G1 X152.259 Y78.01 E1.33339
G1 X151.464 Y77.481 E1.37309
G1 X150.947 Y76.875 E1.40621
G1 X150.499 Y75.68 E1.45926
G1 X150.475 Y74.874 E1.49279
G1 X150.691 Y73.769 E1.5396
G0 F6000 X150.215 Y73.597
G1 F1200 X150.69 Y72.726 E1.58085
G1 X151.383 Y72.048 E1.62115
G1 X152.222 Y71.337 E1.66687
G1 X153.063 Y71.028 E1.70412
G1 X153.949 Y70.974 E1.74103
G1 X155.356 Y71.118 E1.79983
G1 X156.539 Y71.826 E1.85715
G1 X157.267 Y72.756 E1.90625
G1 X157.317 Y72.804 E1.90913
G1 X157.546 Y72.971 E1.92092
G1 X158.022 Y74.25 E1.97765
G1 X158.096 Y75.179 E2.0164
G1 X157.743 Y76.596 E2.07711
G1 X157.239 Y77.398 E2.11649
G1 X157.035 Y77.782 E2.13457
G1 X156.622 Y78.083 E2.15582
G1 X156.134 Y78.083 E2.17611
G1 X155.74 Y77.796 E2.19637
G1 X155.594 Y77.347 E2.216
G1 X155.874 Y76.71 E2.24493
G1 X156.381 Y75.913 E2.2842
G1 X156.418 Y75.808 E2.28883
G1 X156.553 Y74.657 E2.33701
G1 X156.528 Y74.516 E2.34297
G1 X156.102 Y73.681 E2.38194
G1 X155.527 Y72.952 E2.42054
G1 X155.425 Y72.875 E2.42585
G1 X154.459 Y72.484 E2.46918
G1 X154.328 Y72.469 E2.47466
G1 X153.294 Y72.623 E2.51812
G1 X153.213 Y72.649 E2.52166
G1 X152.328 Y73.121 E2.56336
G1 X152.223 Y73.23 E2.56965
G1 X151.706 Y74.257 E2.61746
G1 X151.582 Y74.36 E2.62416
G1 X151.504 Y74.476 E2.62997
G1 X151.492 Y74.555 E2.63329
G1 X151.504 Y75.511 E2.67304
G1 X151.532 Y75.623 E2.67784
G1 X152.067 Y76.656 E2.72621
G1 X152.151 Y76.75 E2.73145
G1 X153.012 Y77.319 E2.77435
G1 X153.08 Y77.35 E2.77746
G1 X153.876 Y77.584 E2.81195
G1 X154.301 Y77.893 E2.8338
G1 X154.452 Y78.356 E2.85405
G1 X154.301 Y78.819 E2.87429
G1 X153.907 Y79.106 E2.89456
G1 X153.316 Y79.106 E2.91913
G1 X152.002 Y78.44 E2.98038
G1 X151.13 Y77.861 E3.0239
G1 X150.51 Y77.134 E3.06362
G1 X150.002 Y75.776 E3.1239
G1 X149.974 Y74.832 E3.16316
G1 X150.215 Y73.597 E3.21548
G1 F2700 E-1.78452
G0 F6000 X152.807 Y129.403
G0 X152.729 Y129.547
G0 X152.709 Y132.435
G0 X152.96 Y132.693
G0 X153.342 Y140.901
G1 F2700 E3.21548
G1 F1200 X155.334 Y141.068 E3.29859
G1 X156.187 Y141.583 E3.34001
G1 X156.334 Y142.034 E3.35973
G1 X156.183 Y142.497 E3.37998
G1 X155.793 Y142.781 E3.40004
G1 X155.003 Y142.757 E3.4329
G1 X154.739 Y142.565 E3.44647
G1 X154.622 Y142.519 E3.4517
G1 X153.822 Y142.422 E3.4852
G1 X153.693 Y142.44 E3.49061
G1 X152.63 Y142.897 E3.53872
G1 X152.552 Y142.951 E3.54266
G1 X151.879 Y143.628 E3.58235
G1 X151.817 Y143.73 E3.58731
G1 X151.532 Y144.645 E3.62716
G1 X151.522 Y144.735 E3.63092
G1 X151.576 Y145.584 E3.66629
G1 X151.598 Y145.674 E3.67014
G1 X151.977 Y146.487 E3.70744
G1 X152.046 Y146.575 E3.71209
G1 X152.924 Y147.288 E3.75911
G1 X153.046 Y147.341 E3.76464
G1 X154.159 Y147.503 E3.8114
G1 X154.289 Y147.488 E3.81684
G1 X155.452 Y147.018 E3.86899
G1 X155.511 Y146.984 E3.87182
G1 X155.814 Y146.749 E3.88776
G1 X155.881 Y146.67 E3.89207
G1 X156.46 Y145.604 E3.94251
G1 X156.49 Y145.471 E3.94817
G1 X156.436 Y144.483 E3.98931
G1 X156.659 Y143.9 E4.01526
G1 X157.058 Y143.609 E4.03579
G1 X157.546 Y143.609 E4.05608
G1 X157.925 Y143.885 E4.07558
G1 X158.118 Y144.939 E4.12012
G1 X157.827 Y146.354 E4.18018
G1 X157.571 Y147.111 E4.21341
G1 X156.692 Y147.966 E4.26439
G1 X155.89 Y148.562 E4.30593
G1 X155.019 Y148.854 E4.34412
G1 X153.552 Y149.004 E4.40543
G1 X152.619 Y148.854 E4.44472
G1 X151.394 Y148.149 E4.50348
G1 X150.781 Y147.341 E4.54565
G1 X150.235 Y146.33 E4.59342
G1 X149.939 Y145.05 E4.64804
G1 X150.029 Y144.12 E4.68689
G1 X150.429 Y142.898 E4.74034
G1 X151.401 Y141.948 E4.79685
G1 X152.194 Y141.353 E4.83807
G1 X153.076 Y141.078 E4.87648
G1 X153.149 Y141.041 E4.87988
G1 X153.342 Y140.901 E4.88979
G0 F6000 X153.485 Y141.414
G1 F1200 X155.176 Y141.556 E4.96034
G1 X155.769 Y141.915 E4.98916
G1 X155.808 Y142.034 E4.99437
G1 X155.758 Y142.188 E5.0011
G1 X155.637 Y142.276 E5.00732
G1 X155.172 Y142.262 E5.02666
G1 X155.033 Y142.161 E5.03381
G1 X154.815 Y142.051 E5.04396
G1 X154.682 Y142.022 E5.04962
G1 X153.882 Y141.925 E5.08312
G1 X153.638 Y141.936 E5.09328
G1 X153.496 Y141.981 E5.09947
G1 X152.433 Y142.438 E5.14757
G1 X152.197 Y142.598 E5.15943
G1 X151.524 Y143.275 E5.19912
G1 X151.34 Y143.581 E5.21396
G1 X151.055 Y144.496 E5.25381
G1 X151.023 Y144.767 E5.26515
G1 X151.077 Y145.616 E5.30052
G1 X151.145 Y145.885 E5.31205
G1 X151.524 Y146.698 E5.34935
G1 X151.731 Y146.963 E5.36333
G1 X152.609 Y147.676 E5.41035
G1 X152.821 Y147.797 E5.4205
G1 X152.974 Y147.836 E5.42706
G1 X154.087 Y147.998 E5.47382
G1 X154.331 Y147.994 E5.48397
G1 X154.476 Y147.951 E5.49026
G1 X155.639 Y147.481 E5.54241
G1 X155.818 Y147.379 E5.55097
G1 X156.121 Y147.144 E5.56692
G1 X156.32 Y146.909 E5.57972
G1 X156.899 Y145.843 E5.63015
G1 X156.979 Y145.612 E5.64032
G1 X156.989 Y145.444 E5.64731
G1 X156.941 Y144.562 E5.68404
G1 X157.073 Y144.216 E5.69943
G1 X157.22 Y144.109 E5.70699
G1 X157.384 Y144.109 E5.71381
G1 X157.469 Y144.171 E5.71819
G1 X157.609 Y144.933 E5.7504
G1 X157.342 Y146.228 E5.80537
G1 X157.137 Y146.834 E5.83197
G1 X156.364 Y147.586 E5.8768
G1 X155.655 Y148.114 E5.91355
G1 X154.911 Y148.362 E5.94616
G1 X153.569 Y148.5 E6.00225
G1 X152.786 Y148.374 E6.03522
G1 X151.732 Y147.768 E6.08577
G1 X151.2 Y147.066 E6.12239
G1 X150.707 Y146.152 E6.16556
G1 X150.444 Y145.015 E6.21408
G1 X150.521 Y144.224 E6.24712
G1 X150.866 Y143.169 E6.29327
G1 X151.723 Y142.332 E6.34307
G1 X152.426 Y141.804 E6.37963
G1 X153.225 Y141.555 E6.41442
G1 X153.443 Y141.445 E6.42457
G1 X153.485 Y141.414 E6.42674
G1 F2700 E1.42674
;MESH:Z-KP08_Holder_100x.stl
G0 F6000 X153.485 Y139.709
G0 X153.485 Y137.034
G0 X159.977 Y139.704
G0 X161.071 Y148.711
G0 X159.779 Y150.504
G0 X164.007 Y150.508
G0 X164.005 Y69.492
G0 X159.779 Y69.496
G0 X161.071 Y78.711
G0 X153.064 Y82.706
;TYPE:WALL-INNER
G1 F2700 E6.42674
G1 F1200 X154.936 Y82.706 E6.50457
G1 X156.755 Y82.258 E6.58246
G1 X158.409 Y81.387 E6.66017
G1 X159.81 Y80.148 E6.73793
G1 X160.874 Y78.607 E6.81579
G1 X161.538 Y76.859 E6.89353
G1 X161.764 Y75 E6.97138
G1 X161.538 Y73.141 E7.04924
G1 X160.874 Y71.393 E7.12698
G1 X159.81 Y69.852 E7.20484
G1 X159.622 Y69.686 E7.21526
G1 X159.13 Y69.25 E7.24259
G1 X159.787 Y69.25 E7.25715
G1 X159.788 Y69.25 E7.25719
G1 X163.901 Y69.25 E7.42819
G1 X164.054 Y69.267 E7.43459
G1 X164.099 Y69.282 E7.43656
G1 X164.149 Y69.313 E7.439
G1 X164.184 Y69.348 E7.44106
G1 X164.212 Y69.393 E7.44326
G1 X164.23 Y69.443 E7.44547
G1 X164.248 Y69.597 E7.45192
G1 X164.25 Y70.072 E7.47167
G1 X164.25 Y108.589 E9.07302
G1 X164.14 Y108.714 E9.07994
G1 X163.88 Y109.198 E9.10278
G1 X163.754 Y109.736 E9.12576
G1 X163.754 Y110.256 E9.14738
G1 X163.876 Y110.786 E9.16999
G1 X164.131 Y111.274 E9.19288
G1 X164.25 Y111.41 E9.20039
G1 X164.25 Y150.401 E10.82145
G1 X164.232 Y150.557 E10.82798
G1 X164.217 Y150.601 E10.82991
G1 X164.193 Y150.64 E10.83181
G1 X164.141 Y150.692 E10.83487
G1 X164.108 Y150.713 E10.8365
G1 X164.05 Y150.733 E10.83905
G1 X163.9 Y150.75 E10.84533
G1 X159.787 Y150.75 E11.01632
G1 X159.129 Y150.75 E11.04368
G1 X159.622 Y150.314 E11.05826
G1 X159.81 Y150.148 E11.06868
G1 X160.874 Y148.607 E11.14654
G1 X161.538 Y146.859 E11.22428
G1 X161.764 Y145 E11.30213
G1 X161.538 Y143.141 E11.37999
G1 X160.874 Y141.393 E11.45773
G1 X159.81 Y139.852 E11.53559
G1 X158.409 Y138.61 E11.61343
G1 X156.754 Y137.742 E11.69112
G1 X154.936 Y137.294 E11.76897
G1 X153.064 Y137.294 E11.8468
G1 X151.246 Y137.742 E11.92464
G1 X149.591 Y138.61 E12.00234
G1 X148.19 Y139.852 E12.08018
G1 X147.126 Y141.393 E12.15803
G1 X146.463 Y143.139 E12.23568
G1 X146.236 Y145 E12.31362
G1 X146.462 Y146.859 E12.39148
G1 X147.123 Y148.6 E12.46891
G1 X147.283 Y148.836 E12.48076
G1 X148.19 Y150.148 E12.54707
G1 X148.378 Y150.314 E12.5575
G1 X148.87 Y150.75 E12.58483
G1 X148.213 Y150.75 E12.59938
G1 X148.212 Y150.75 E12.59942
G1 X136.099 Y150.75 E13.10302
G1 X135.946 Y150.733 E13.10942
G1 X135.901 Y150.718 E13.11139
G1 X135.851 Y150.687 E13.11384
G1 X135.816 Y150.652 E13.1159
G1 X135.788 Y150.607 E13.1181
G1 X135.769 Y150.555 E13.1204
G1 X135.752 Y150.404 E13.12672
G1 X135.75 Y70.658 E16.44217
G1 X135.75 Y69.599 E16.4862
G1 X135.767 Y69.446 E16.4926
G1 X135.782 Y69.401 E16.49458
G1 X135.812 Y69.353 E16.49693
G1 X135.856 Y69.309 E16.49952
G1 X135.891 Y69.286 E16.50126
G1 X135.945 Y69.268 E16.50362
G1 X136.101 Y69.25 E16.51015
G1 X148.212 Y69.25 E17.01367
G1 X148.213 Y69.25 E17.01371
G1 X148.87 Y69.25 E17.04103
G1 X148.378 Y69.686 E17.05559
G1 X148.19 Y69.852 E17.06601
G1 X147.126 Y71.393 E17.14387
G1 X146.463 Y73.139 E17.22152
G1 X146.236 Y75 E17.29946
G1 X146.462 Y76.859 E17.37732
G1 X147.123 Y78.6 E17.45474
G1 X147.283 Y78.836 E17.46659
G1 X148.19 Y80.148 E17.53291
G1 X149.591 Y81.39 E17.61075
G1 X151.246 Y82.258 E17.68844
G1 X153.064 Y82.706 E17.76629
G0 F6000 X153.125 Y82.206
G1 F1200 X154.875 Y82.206 E17.83904
G1 X156.576 Y81.787 E17.91188
G1 X158.123 Y80.973 E17.98455
G1 X159.433 Y79.814 E18.05727
G1 X160.428 Y78.373 E18.13008
G1 X161.049 Y76.738 E18.20279
G1 X161.26 Y75 E18.27558
G1 X161.049 Y73.262 E18.34837
G1 X160.428 Y71.627 E18.42108
G1 X159.433 Y70.186 E18.49388
G1 X158.343 Y69.22 E18.55444
G1 X158.123 Y69.025 E18.56666
G1 X157.599 Y68.75 E18.59126
G1 X158.123 Y68.75 E18.59674
G1 X158.418 Y68.75 E18.60644
G1 X163.928 Y68.75 E18.83552
G1 X164.166 Y68.776 E18.84547
G1 X164.317 Y68.828 E18.85211
G1 X164.461 Y68.919 E18.85919
G1 X164.576 Y69.033 E18.86592
G1 X164.666 Y69.175 E18.87291
G1 X164.721 Y69.331 E18.87979
G1 X164.748 Y69.564 E18.88954
G1 X164.75 Y70.072 E18.91066
G1 X164.75 Y108.777 E20.51983
G1 X164.554 Y109.001 E20.5322
G1 X164.352 Y109.377 E20.54995
G1 X164.254 Y109.794 E20.56776
G1 X164.254 Y110.199 E20.5846
G1 X164.349 Y110.611 E20.60218
G1 X164.547 Y110.99 E20.61995
G1 X164.75 Y111.223 E20.6328
G1 X164.75 Y150.431 E22.26288
G1 X164.723 Y150.669 E22.27284
G1 X164.672 Y150.817 E22.27935
G1 X164.585 Y150.956 E22.28616
G1 X164.457 Y151.084 E22.29369
G1 X164.329 Y151.165 E22.29999
G1 X164.272 Y151.184 E22.30249
G1 X164.217 Y151.203 E22.30491
G1 X164.159 Y151.224 E22.30747
G1 X163.931 Y151.25 E22.31701
G1 X158.415 Y151.25 E22.54634
G1 X158.123 Y151.25 E22.55848
G1 X157.597 Y151.25 E22.58035
G1 X158.123 Y150.973 E22.58873
G1 X158.341 Y150.78 E22.59831
G1 X159.433 Y149.814 E22.65892
G1 X160.428 Y148.373 E22.73173
G1 X161.049 Y146.738 E22.80444
G1 X161.26 Y145 E22.87723
G1 X161.049 Y143.262 E22.95002
G1 X160.428 Y141.627 E23.02273
G1 X159.433 Y140.186 E23.09553
G1 X158.123 Y139.025 E23.16831
G1 X156.575 Y138.213 E23.24098
G1 X154.875 Y137.794 E23.31378
G1 X153.125 Y137.794 E23.38653
G1 X151.425 Y138.213 E23.45933
G1 X149.877 Y139.025 E23.532
G1 X148.567 Y140.186 E23.60478
G1 X147.572 Y141.627 E23.67758
G1 X146.952 Y143.26 E23.7502
G1 X146.74 Y145 E23.82308
G1 X146.951 Y146.738 E23.89587
G1 X147.57 Y148.368 E23.96835
G1 X147.696 Y148.554 E23.9777
G1 X148.567 Y149.814 E24.04138
G1 X149.657 Y150.78 E24.10193
G1 X149.877 Y150.975 E24.11415
G1 X150.401 Y151.25 E24.13876
G1 X149.877 Y151.25 E24.14423
G1 X149.582 Y151.25 E24.15393
G1 X136.072 Y151.25 E24.71561
G1 X135.834 Y151.224 E24.72556
G1 X135.683 Y151.172 E24.7322
G1 X135.539 Y151.081 E24.73929
G1 X135.424 Y150.967 E24.74602
G1 X135.334 Y150.825 E24.75301
G1 X135.279 Y150.669 E24.75988
G1 X135.252 Y150.435 E24.76968
G1 X135.25 Y70.658 E28.08642
G1 X135.25 Y69.572 E28.13157
G1 X135.276 Y69.334 E28.14152
G1 X135.328 Y69.183 E28.14816
G1 X135.419 Y69.039 E28.15525
G1 X135.537 Y68.919 E28.16224
G1 X135.674 Y68.832 E28.16899
G1 X135.833 Y68.777 E28.17599
G1 X136.071 Y68.75 E28.18594
G1 X149.582 Y68.75 E28.74767
G1 X149.877 Y68.75 E28.75993
G1 X150.401 Y68.75 E28.78172
G1 X149.877 Y69.025 E28.78999
G1 X149.657 Y69.22 E28.79964
G1 X148.567 Y70.186 E28.86019
G1 X147.572 Y71.627 E28.93299
G1 X146.952 Y73.26 E29.00561
G1 X146.74 Y75 E29.07849
G1 X146.951 Y76.738 E29.15128
G1 X147.57 Y78.368 E29.22377
G1 X147.696 Y78.554 E29.23311
G1 X148.567 Y79.814 E29.29679
G1 X149.877 Y80.975 E29.36956
G1 X151.425 Y81.787 E29.44224
G1 X153.125 Y82.206 E29.51503
G0 F6000 X150.284 Y80.384
G0 X149.104 Y79.339
G0 X148.206 Y78.038
G0 X147.646 Y76.565
G0 X147.456 Y75
G0 X147.648 Y73.433
G0 X148.206 Y71.96
G0 X149.104 Y70.661
G0 X150.284 Y69.616
G0 X151.414 Y69.023
G0 X153.186 Y68.25
G1 F1200 X154.814 Y68.25 E29.58272
G1 X156.396 Y68.25 E29.64849
G1 X156.527 Y68.25 E29.65393
G1 X163.955 Y68.25 E29.96275
G1 X164.275 Y68.285 E29.97614
G1 X164.535 Y68.375 E29.98758
G1 X164.773 Y68.524 E29.99925
G1 X164.968 Y68.717 E30.01066
G1 X165.119 Y68.957 E30.02245
G1 X165.212 Y69.218 E30.03397
G1 X165.248 Y69.532 E30.04711
G1 X165.25 Y70.072 E30.06956
G1 X165.25 Y109.002 E31.68808
G1 X165.169 Y109.057 E31.69215
G1 X164.968 Y109.287 E31.70485
G1 X164.824 Y109.556 E31.71753
G1 X164.754 Y109.852 E31.73018
G1 X164.754 Y110.142 E31.74224
G1 X164.822 Y110.436 E31.75478
G1 X164.963 Y110.706 E31.76745
G1 X165.162 Y110.935 E31.78006
G1 X165.25 Y110.996 E31.78451
G1 X165.25 Y150.461 E33.42527
G1 X165.214 Y150.778 E33.43854
G1 X165.125 Y151.035 E33.44985
G1 X164.977 Y151.272 E33.46146
G1 X164.773 Y151.476 E33.47346
G1 X164.548 Y151.618 E33.48452
G1 X164.272 Y151.715 E33.49668
G1 X163.96 Y151.75 E33.50973
G1 X156.528 Y151.75 E33.81872
G1 X156.397 Y151.75 E33.82417
G1 X154.814 Y151.75 E33.88998
G1 X153.186 Y151.75 E33.95766
G1 X151.604 Y151.75 E34.02344
G1 X151.473 Y151.75 E34.02888
G1 X136.045 Y151.75 E34.6703
G1 X135.725 Y151.715 E34.68369
G1 X135.465 Y151.625 E34.69513
G1 X135.227 Y151.476 E34.7068
