;FLAVOR:Marlin
;TIME:8650
;Filament used: 6.68345m
;Layer height: 0.2
;MINX:128.469
;MINY:95.25
;MINZ:0.2
;MAXX:165.665
;MAXY:124.75
;MAXZ:30
;Generated with Cura_SteamEngine 4.5.0
M82 ;absolute extrusion mode
M201 X500.00 Y500.00 Z100.00 E5000.00 ;Setup machine max acceleration
M203 X500.00 Y500.00 Z10.00 E50.00 ;Setup machine max feedrate
M204 P500.00 R1000.00 T500.00 ;Setup Print/Retract/Travel acceleration
M205 X8.00 Y8.00 Z0.40 E5.00 ;Setup Jerk
M220 S100 ;Reset Feedrate
M221 S100 ;Reset Flowrate

G28 ;Home

G92 E0 ;Reset Extruder
M117 Getting the bed & Extruder up to temp!
M140 S60   ; Set Heat Bed temperature
M104 S220.0 ; Set Extruder temperature
M190 S60 ; Wait for Heat Bed temperature
M109 S220.0 ; Wait for Extruder temperature
M117 Bed & Extruder up to temp!

G1 Z2.0 F3000 ;Move Z Axis up
G1 X10.1 Y20 Z0.28 F5000.0 ;Move to start position
G1 X10.1 Y200.0 Z0.28 F1500.0 E15 ;Draw the first line
G1 X10.4 Y200.0 Z0.28 F5000.0 ;Move to side a little
G1 X10.4 Y20 Z0.28 F1500.0 E30 ;Draw the second line
G92 E0 ;Reset Extruder
G1 Z2.0 F3000 ;Move Z Axis up
G92 E0
G92 E0
G1 F2700 E-5
;LAYER_COUNT:150
;LAYER:0
M107
G0 F6000 X130.693 Y109.815 Z0.2
;TYPE:SKIRT
G1 F2700 E0
G1 F1200 X130.823 Y109.721 E0.00667
G1 X130.977 Y109.721 E0.01307
G1 X131.107 Y109.815 E0.01974
G1 X131.155 Y109.963 E0.02621
G1 X131.107 Y110.111 E0.03268
G1 X130.977 Y110.205 E0.03935
G1 X130.823 Y110.205 E0.04575
G1 X130.693 Y110.111 E0.05242
G1 X130.645 Y109.963 E0.05889
G1 X130.693 Y109.815 E0.06536
G0 F6000 X130.268 Y109.507
G1 F1200 X130.661 Y109.221 E0.08557
G1 X131.139 Y109.221 E0.10544
G1 X131.532 Y109.507 E0.12565
G1 X131.68 Y109.963 E0.14558
G1 X131.532 Y110.419 E0.16551
G1 X131.139 Y110.705 E0.18572
G1 X130.661 Y110.705 E0.20559
G1 X130.268 Y110.419 E0.2258
G1 X130.12 Y109.963 E0.24573
G1 X130.268 Y109.507 E0.26566
G0 F6000 X129.844 Y109.197
G1 F1200 X130.498 Y108.721 E0.29929
G1 X131.302 Y108.721 E0.33272
G1 X131.956 Y109.197 E0.36635
G1 X132.206 Y109.963 E0.39985
G1 X131.956 Y110.729 E0.43335
G1 X131.302 Y111.205 E0.46698
G1 X130.498 Y111.205 E0.5004
G1 X129.844 Y110.729 E0.53403
G1 X129.594 Y109.963 E0.56753
G1 X129.844 Y109.197 E0.60103
G0 F6000 X129.418 Y108.888
G1 F1200 X130.334 Y108.221 E0.64814
G1 X131.466 Y108.221 E0.6952
G1 X132.382 Y108.888 E0.74231
G1 X132.732 Y109.963 E0.78932
G1 X132.382 Y111.038 E0.83632
G1 X131.466 Y111.705 E0.88343
G1 X130.334 Y111.705 E0.93049
G1 X129.418 Y111.038 E0.9776
G1 X129.068 Y109.963 E1.0246
G1 X129.418 Y108.888 E1.07161
G0 F6000 X128.993 Y108.579
G1 F1200 X130.172 Y107.721 E1.13223
G1 X131.628 Y107.721 E1.19276
G1 X132.807 Y108.579 E1.25338
G1 X133.258 Y109.963 E1.3139
G1 X132.807 Y111.347 E1.37442
G1 X131.628 Y112.205 E1.43504
G1 X130.172 Y112.205 E1.49558
G1 X128.993 Y111.347 E1.5562
G1 X128.542 Y109.963 E1.61672
G1 X128.993 Y108.579 E1.67724
G1 F2700 E-3.32276
;MESH:Test_Cube.stl
G0 F6000 X141.052 Y113.269
G0 X139.309 Y115.623
G0 X140.711 Y118.234
G0 X140.867 Y118.46
G0 X142.91 Y120.639
;TYPE:WALL-INNER
G1 F2700 E1.67724
G1 F1200 X143.691 Y120.444 E1.7107
G1 X144.404 Y120.072 E1.74414
G1 X145.011 Y119.536 E1.7778
G1 X145.473 Y118.873 E1.8114
G1 X145.766 Y118.106 E1.84554
G1 X145.864 Y117.3 E1.87929
G1 X145.767 Y116.503 E1.91267
G1 X145.48 Y115.744 E1.94641
G1 X145.222 Y115.367 E1.9654
G1 X145.761 Y114.889 E1.99535
G1 X146.36 Y114.026 E2.03903
G1 X146.733 Y113.043 E2.08274
G1 X146.862 Y112.004 E2.12627
G1 X146.74 Y110.957 E2.17009
G1 X146.365 Y109.973 E2.21387
G1 X145.772 Y109.106 E2.25754
G1 X145.458 Y108.827 E2.27501
G1 X145.495 Y108.794
G1 X146.132 Y108.231 E2.31035
G1 X146.802 Y107.268 E2.35913
G1 X147.218 Y106.172 E2.40786
G1 X147.362 Y105.013 E2.45642
G1 X147.227 Y103.848 E2.50518
G1 X146.809 Y102.748 E2.5541
G1 X146.146 Y101.782 E2.60281
G1 X145.27 Y101.004 E2.65152
G1 X144.231 Y100.456 E2.70036
G1 X143.096 Y100.175 E2.74897
G1 X141.925 Y100.173 E2.79766
G1 X140.784 Y100.45 E2.84647
G1 X139.738 Y100.999 E2.89559
G1 X138.868 Y101.769 E2.94389
G1 X138.198 Y102.732 E2.99266
G1 X137.782 Y103.825 E3.04128
G1 X137.636 Y104.996 E3.09034
G1 X137.776 Y106.156 E3.13892
G1 X138.191 Y107.251 E3.18761
G1 X138.854 Y108.218 E3.23635
G1 X139.504 Y108.795 E3.27249
G1 X139.541 Y108.828 E3.27455
G1 X139.235 Y109.099 E3.28638
G1 X138.64 Y109.961 E3.32993
G1 X138.267 Y110.941 E3.37352
G1 X138.138 Y111.983 E3.41717
G1 X138.264 Y113.034 E3.46118
G1 X138.635 Y114.011 E3.50463
G1 X139.228 Y114.878 E3.5483
G1 X139.777 Y115.366 E3.57884
G1 X139.524 Y115.735 E3.59744
G1 X139.237 Y116.491 E3.63106
G1 X139.137 Y117.289 E3.6645
G1 X139.23 Y118.094 E3.69819
G1 X139.52 Y118.858 E3.73216
G1 X139.979 Y119.527 E3.76589
G1 X140.585 Y120.063 E3.79953
G1 X141.303 Y120.441 E3.83326
G1 X142.091 Y120.639 E3.86704
G1 X142.91 Y120.639 E3.90109
G0 F6000 X142.848 Y120.139
G1 F1200 X143.512 Y119.973 E3.92955
G1 X144.119 Y119.657 E3.958
G1 X144.635 Y119.201 E3.98663
G1 X145.028 Y118.637 E4.01521
G1 X145.277 Y117.985 E4.04423
G1 X145.36 Y117.3 E4.07291
G1 X145.278 Y116.623 E4.10127
G1 X145.034 Y115.977 E4.12998
G1 X144.643 Y115.407 E4.15871
G1 X144.552 Y115.326 E4.16378
G1 X144.493 Y115.274 E4.16705
G1 X144.556 Y115.241 E4.16754
G1 X144.687 Y115.173 E4.17054
G1 X145.384 Y114.555 E4.20927
G1 X145.914 Y113.791 E4.24793
G1 X146.244 Y112.922 E4.28658
G1 X146.358 Y112.002 E4.32512
G1 X146.251 Y111.077 E4.36383
G1 X145.919 Y110.206 E4.40259
G1 X145.394 Y109.439 E4.44123
G1 X144.795 Y108.907 E4.47454
G1 X144.737 Y108.856 E4.47775
G1 X144.698 Y108.821 E4.47993
G1 X144.614 Y108.776 E4.48389
G1 X144.661 Y108.752
G1 X144.976 Y108.586 E4.49429
G1 X145.034 Y108.535 E4.49717
G1 X145.756 Y107.896 E4.53725
G1 X146.356 Y107.033 E4.58095
G1 X146.729 Y106.051 E4.62462
G1 X146.858 Y105.011 E4.66819
G1 X146.737 Y103.967 E4.71189
G1 X146.363 Y102.982 E4.75569
G1 X145.768 Y102.115 E4.79941
G1 X144.983 Y101.418 E4.84305
G1 X144.052 Y100.927 E4.88681
G1 X143.035 Y100.675 E4.93037
G1 X141.984 Y100.673 E4.97407
G1 X140.962 Y100.921 E5.01779
G1 X140.024 Y101.414 E5.06185
G1 X139.244 Y102.104 E5.10515
G1 X138.644 Y102.967 E5.14884
G1 X138.271 Y103.947 E5.19244
G1 X138.14 Y104.997 E5.23643
G1 X138.265 Y106.036 E5.27994
G1 X138.637 Y107.018 E5.3236
G1 X139.232 Y107.885 E5.36732
G1 X139.963 Y108.534 E5.40796
G1 X140.017 Y108.582 E5.41096
G1 X140.343 Y108.754 E5.42628
G1 X140.383 Y108.775 E5.42816
G1 X140.313 Y108.812
G1 X140.262 Y108.857
G1 X140.208 Y108.905 E5.43087
G1 X139.612 Y109.433 E5.46397
G1 X139.086 Y110.195 E5.50247
G1 X138.756 Y111.062 E5.54104
G1 X138.642 Y111.984 E5.57966
G1 X138.753 Y112.914 E5.6186
G1 X139.081 Y113.778 E5.65702
G1 X139.606 Y114.545 E5.69567
G1 X140.308 Y115.169 E5.73472
G1 X140.444 Y115.24 E5.74109
G1 X140.507 Y115.273 E5.74405
G1 X140.447 Y115.326 E5.74445
G1 X140.36 Y115.402 E5.7461
G1 X139.97 Y115.969 E5.77471
G1 X139.726 Y116.612 E5.80331
G1 X139.641 Y117.291 E5.83176
G1 X139.72 Y117.975 E5.86038
G1 X139.966 Y118.624 E5.88924
G1 X140.357 Y119.193 E5.91794
G1 X140.871 Y119.649 E5.94651
G1 X141.483 Y119.971 E5.97526
G1 X142.153 Y120.139 E6.00398
G1 X142.848 Y120.139 E6.03287
G0 F6000 X142.786 Y119.639
G1 F1200 X143.334 Y119.502 E6.05636
G1 X143.834 Y119.242 E6.07979
G1 X144.259 Y118.866 E6.10338
G1 X144.583 Y118.401 E6.12694
G1 X144.788 Y117.864 E6.15084
G1 X144.856 Y117.3 E6.17446
G1 X144.789 Y116.743 E6.19778
G1 X144.588 Y116.21 E6.22147
G1 X144.266 Y115.741 E6.24512
G1 X143.961 Y115.471 E6.26205
G1 X143.842 Y115.366 E6.26865
G1 X143.622 Y115.25 E6.27899
G1 X143.491 Y115.18 E6.28517
G1 X143.683 Y115.133 E6.28753
G1 X143.712 Y115.118
G1 X143.852 Y115.045 E6.2929
G1 X144.401 Y114.758 E6.31866
G1 X145.007 Y114.221 E6.35232
G1 X145.468 Y113.556 E6.38596
G1 X145.755 Y112.801 E6.41954
G1 X145.854 Y112 E6.4531
G1 X145.761 Y111.196 E6.48675
G1 X145.473 Y110.439 E6.52042
G1 X145.016 Y109.772 E6.55404
G1 X144.411 Y109.235 E6.58767
G1 X143.891 Y108.961 E6.6121
G1 X143.722 Y108.872 E6.62005
G1 X143.696 Y108.858 E6.62127
G1 X143.27 Y108.752 E6.63952
G1 X143.647 Y108.66 E6.64236
G1 X143.86 Y108.608 E6.64896
G1 X144.029 Y108.52 E6.65546
G1 X144.69 Y108.172 E6.68651
G1 X145.38 Y107.561 E6.72483
G1 X145.91 Y106.798 E6.76346
G1 X146.24 Y105.93 E6.80206
G1 X146.354 Y105.009 E6.84065
G1 X146.247 Y104.086 E6.87928
G1 X145.917 Y103.215 E6.918
G1 X145.39 Y102.448 E6.95669
G1 X144.696 Y101.832 E6.99527
G1 X143.873 Y101.398 E7.03395
G1 X142.973 Y101.175 E7.0725
G1 X142.043 Y101.173 E7.11117
G1 X141.14 Y101.392 E7.1498
G1 X140.31 Y101.828 E7.18878
G1 X139.62 Y102.439 E7.22709
G1 X139.09 Y103.202 E7.26572
G1 X138.76 Y104.069 E7.30429
G1 X138.644 Y104.998 E7.34321
G1 X138.754 Y105.916 E7.38165
G1 X139.083 Y106.785 E7.42028
G1 X139.61 Y107.552 E7.45897
G1 X140.304 Y108.168 E7.49755
G1 X140.967 Y108.518 E7.52872
G1 X141.127 Y108.602 E7.53623
G1 X141.359 Y108.659 E7.54616
G1 X141.731 Y108.752 E7.56211
G1 X141.311 Y108.854 E7.5669
G1 X141.271 Y108.875
G1 X141.111 Y108.959 E7.57314
G1 X140.599 Y109.227 E7.59716
G1 X139.989 Y109.767 E7.63104
G1 X139.532 Y110.429 E7.66448
G1 X139.245 Y111.183 E7.69802
G1 X139.146 Y111.985 E7.73162
G1 X139.242 Y112.794 E7.76549
G1 X139.527 Y113.545 E7.79888
G1 X139.984 Y114.212 E7.8325
G1 X140.594 Y114.754 E7.86642
G1 X141.146 Y115.043 E7.89233
G1 X141.291 Y115.118 E7.89912
G1 X141.305 Y115.126 E7.89979
G1 X141.512 Y115.178 E7.90866
G1 X141.372 Y115.252 E7.90904
G1 X141.165 Y115.361 E7.91582
G1 X141.042 Y115.469 E7.92135
G1 X140.737 Y115.737 E7.93823
G1 X140.416 Y116.203 E7.96175
G1 X140.215 Y116.733 E7.98532
G1 X140.145 Y117.293 E8.00878
G1 X140.21 Y117.856 E8.03234
G1 X140.412 Y118.391 E8.05612
G1 X140.734 Y118.859 E8.07974
G1 X141.158 Y119.235 E8.1033
G1 X141.663 Y119.501 E8.12703
G1 X142.215 Y119.639 E8.15068
G1 X142.786 Y119.639 E8.17442
G0 F6000 X142.724 Y119.139
;TYPE:WALL-OUTER
G1 F1200 X143.156 Y119.031 E8.19294
G1 X143.549 Y118.827 E8.21135
G1 X143.883 Y118.531 E8.2299
G1 X144.138 Y118.165 E8.24845
G1 X144.299 Y117.743 E8.26722
G1 X144.352 Y117.3 E8.28577
G1 X144.3 Y116.862 E8.30411
G1 X144.142 Y116.443 E8.32273
G1 X143.889 Y116.075 E8.3413
G1 X143.555 Y115.78 E8.35982
G1 X143.156 Y115.568 E8.37861
G1 X142.727 Y115.464 E8.39696
G1 X142.278 Y115.462 E8.41563
G1 X141.847 Y115.566 E8.43406
G1 X141.451 Y115.775 E8.45268
G1 X141.114 Y116.072 E8.47135
G1 X140.862 Y116.437 E8.48979
G1 X140.704 Y116.854 E8.50833
G1 X140.649 Y117.295 E8.52681
G1 X140.7 Y117.738 E8.54535
G1 X140.858 Y118.158 E8.564
G1 X141.111 Y118.525 E8.58254
G1 X141.445 Y118.821 E8.60109
G1 X141.843 Y119.031 E8.6198
G1 X142.276 Y119.139 E8.63835
G1 X142.724 Y119.139 E8.65698
G0 F6000 X142.791 Y119.684
G1 F2700 E3.65698
G0 F6000 X144.006 Y118.641
G0 X144.284 Y118.242
G0 X144.459 Y117.782
G0 X144.518 Y117.3
G0 X144.46 Y116.823
G0 X144.289 Y116.367
G0 X144.012 Y115.966
G0 X142.837 Y115.047
G0 X142.838 Y114.823
G1 F2700 E8.65698
G1 F1200 X143.506 Y114.661 E8.68556
G1 X144.115 Y114.343 E8.71412
G1 X144.63 Y113.887 E8.74272
G1 X145.022 Y113.321 E8.77134
G1 X145.266 Y112.68 E8.79986
G1 X145.35 Y111.998 E8.82843
G1 X145.271 Y111.315 E8.85701
G1 X145.027 Y110.672 E8.8856
G1 X144.638 Y110.105 E8.91419
G1 X144.124 Y109.649 E8.94276
G1 X143.517 Y109.329 E8.97129
G1 X142.849 Y109.163 E8.9999
G1 X142.162 Y109.161 E9.02847
G1 X141.489 Y109.325 E9.05726
G1 X140.885 Y109.642 E9.08562
G1 X140.366 Y110.101 E9.11443
G1 X139.978 Y110.663 E9.14282
G1 X139.734 Y111.304 E9.17134
G1 X139.65 Y111.986 E9.19991
G1 X139.731 Y112.674 E9.22871
G1 X139.973 Y113.312 E9.25708
G1 X140.362 Y113.879 E9.28566
G1 X140.88 Y114.339 E9.31447
G1 X141.484 Y114.655 E9.34281
G1 X142.151 Y114.821 E9.37138
G1 X142.838 Y114.823 E9.39994
G1 F2700 E4.39994
G0 F6000 X142.837 Y115.047
G0 X143.564 Y114.816
G0 X144.208 Y114.479
G0 X144.753 Y113.997
G0 X145.168 Y113.398
G0 X145.426 Y112.719
G0 X145.516 Y111.998
G0 X145.431 Y111.276
G0 X145.174 Y110.596
G0 X144.761 Y109.996
G0 X144.608 Y109.86
G0 X142.903 Y108.551
G0 X142.904 Y108.327
G1 F2700 E9.39994
G1 F1200 X143.682 Y108.137 E9.43324
G1 X144.404 Y107.758 E9.46714
G1 X145.003 Y107.227 E9.50042
G1 X145.464 Y106.563 E9.53403
G1 X145.751 Y105.809 E9.56757
G1 X145.85 Y105.007 E9.60117
G1 X145.757 Y104.205 E9.63473
G1 X145.471 Y103.448 E9.66838
G1 X145.013 Y102.782 E9.70198
G1 X144.409 Y102.246 E9.73556
G1 X143.694 Y101.869 E9.76916
G1 X142.911 Y101.675 E9.8027
G1 X142.102 Y101.673 E9.83633
G1 X141.318 Y101.863 E9.86987
G1 X140.596 Y102.242 E9.90377
G1 X139.997 Y102.773 E9.93705
G1 X139.536 Y103.437 E9.97066
G1 X139.249 Y104.191 E10.0042
G1 X139.148 Y104.999 E10.03806
G1 X139.243 Y105.796 E10.07143
G1 X139.529 Y106.552 E10.10503
G1 X139.987 Y107.218 E10.13864
G1 X140.591 Y107.754 E10.17221
G1 X141.306 Y108.131 E10.20581
G1 X142.089 Y108.325 E10.23935
G1 X142.904 Y108.327 E10.27324
G1 F2700 E5.27324
G0 F6000 X142.903 Y108.551
G0 X143.657 Y108.318
G0 X147.453 Y106.231
G0 X152.298 Y104.888
G0 X154.587 Y105.836
;TYPE:WALL-INNER
G1 F2700 E10.27324
G1 F1200 X155.398 Y105.838 E10.30695
G1 X156.187 Y105.647 E10.3407
G1 X156.91 Y105.266 E10.37468
G1 X157.511 Y104.736 E10.40799
G1 X157.976 Y104.069 E10.4418
G1 X158.263 Y103.309 E10.47557
G1 X158.363 Y102.511 E10.50901
G1 X158.27 Y101.706 E10.5427
G1 X157.98 Y100.942 E10.57668
G1 X157.52 Y100.273 E10.61043
G1 X156.913 Y99.737 E10.6441
G1 X156.196 Y99.358 E10.67781
G1 X155.413 Y99.164 E10.71135
G1 X154.608 Y99.162 E10.74482
G1 X153.816 Y99.35 E10.77866
G1 X153.09 Y99.734 E10.81281
G1 X152.489 Y100.264 E10.84612
G1 X152.024 Y100.931 E10.87993
G1 X151.737 Y101.69 E10.91366
G1 X151.636 Y102.494 E10.94735
G1 X151.733 Y103.297 E10.98098
G1 X152.02 Y104.058 E11.01479
G1 X152.48 Y104.727 E11.04855
G1 X153.087 Y105.263 E11.08222
G1 X153.804 Y105.642 E11.11593
G1 X154.587 Y105.836 E11.14947
G0 F6000 X154.649 Y105.336
G1 F1200 X155.339 Y105.338 E11.17816
G1 X156.009 Y105.176 E11.20682
G1 X156.624 Y104.852 E11.23572
G1 X157.135 Y104.401 E11.26405
G1 X157.53 Y103.834 E11.29278
G1 X157.774 Y103.188 E11.32149
G1 X157.859 Y102.509 E11.34994
G1 X157.78 Y101.825 E11.37857
G1 X157.534 Y101.176 E11.40742
G1 X157.143 Y100.607 E11.43613
G1 X156.627 Y100.151 E11.46476
G1 X156.017 Y99.829 E11.49343
G1 X155.351 Y99.664 E11.52196
G1 X154.666 Y99.662 E11.55044
G1 X153.993 Y99.822 E11.5792
G1 X153.376 Y100.148 E11.60821
G1 X152.865 Y100.599 E11.63655
G1 X152.47 Y101.166 E11.66528
G1 X152.226 Y101.811 E11.69395
G1 X152.14 Y102.495 E11.72261
G1 X152.222 Y103.177 E11.75117
G1 X152.466 Y103.825 E11.77995
G1 X152.857 Y104.393 E11.80862
G1 X153.373 Y104.849 E11.83725
G1 X153.983 Y105.171 E11.86593
G1 X154.649 Y105.336 E11.89446
G0 F6000 X154.711 Y104.836
G1 F1200 X155.28 Y104.838 E11.91811
G1 X155.831 Y104.705 E11.94168
G1 X156.338 Y104.438 E11.9655
G1 X156.759 Y104.066 E11.98886
G1 X157.084 Y103.599 E12.01251
G1 X157.285 Y103.067 E12.03616
G1 X157.355 Y102.507 E12.05962
G1 X157.29 Y101.944 E12.08318
G1 X157.088 Y101.409 E12.10696
G1 X156.766 Y100.941 E12.13057
G1 X156.341 Y100.565 E12.15417
G1 X155.838 Y100.3 E12.1778
G1 X155.289 Y100.164 E12.20132
G1 X154.724 Y100.162 E12.22481
G1 X154.17 Y100.294 E12.24849
G1 X153.662 Y100.562 E12.27236
G1 X153.241 Y100.934 E12.29572
G1 X152.916 Y101.401 E12.31938
G1 X152.715 Y101.932 E12.34298
G1 X152.644 Y102.497 E12.36666
G1 X152.711 Y103.058 E12.39015
G1 X152.912 Y103.592 E12.41387
G1 X153.234 Y104.059 E12.43745
G1 X153.659 Y104.435 E12.46104
G1 X154.162 Y104.7 E12.48468
G1 X154.711 Y104.836 E12.50819
G0 F6000 X154.773 Y104.336
;TYPE:WALL-OUTER
G1 F1200 X155.222 Y104.338 E12.52686
G1 X155.653 Y104.234 E12.5453
G1 X156.052 Y104.024 E12.56404
G1 X156.383 Y103.731 E12.58242
G1 X156.638 Y103.364 E12.601
G1 X156.796 Y102.946 E12.61958
G1 X156.851 Y102.505 E12.63805
G1 X156.8 Y102.062 E12.65659
G1 X156.642 Y101.642 E12.67525
G1 X156.389 Y101.275 E12.69378
G1 X156.055 Y100.979 E12.71234
G1 X155.659 Y100.771 E12.73093
G1 X155.227 Y100.664 E12.74944
G1 X154.782 Y100.662 E12.76794
G1 X154.347 Y100.766 E12.78653
G1 X153.948 Y100.976 E12.80528
G1 X153.617 Y101.269 E12.82366
G1 X153.362 Y101.636 E12.84224
G1 X153.204 Y102.053 E12.86078
G1 X153.148 Y102.499 E12.87946
G1 X153.2 Y102.939 E12.89788
G1 X153.358 Y103.358 E12.9165
G1 X153.611 Y103.725 E12.93503
G1 X153.945 Y104.021 E12.95359
